**kern	**dynam	**kern	**dynam	**kern	**dynam	**kern	**dynam	**mxhm
*part4	*part4	*part3	*part3	*part2	*part2	*part1	*part1	*part1
*staff4	*	*staff3	*	*staff2	*	*staff1	*	*
*I"Cello	*	*I"Viola	*	*I"2nd Violin	*	*I"1st Violin	*	*
*clefF4	*	*clefC3	*	*clefG2	*	*clefG2	*	*
*k[b-e-a-d-]	*	*k[b-e-a-d-]	*	*k[b-e-a-d-]	*	*k[b-e-a-d-]	*	*
*A-:	*	*A-:	*	*A-:	*	*A-:	*	*
*M2/4	*	*M2/4	*	*M2/4	*	*M2/4	*	*
=1	=1	=1	=1	=1	=1	=1	=1	=1
4E-'	p	2r	.	2r	.	2r	.	.G.I
4A-'	.	.	.	.	.	.	.	.
=2	=2	=2	=2	=2	=2	=2	=2	=2
(4.c	.	2r	.	2r	.	2r	.	.
16B-LL	.	.	.	.	.	.	.	.
16A-JJ)	.	.	.	.	.	.	.	.
=3	=3	=3	=3	=3	=3	=3	=3	=3
8G'L	.	2r	.	2r	.	2r	.	V7
8A-'J	.	.	.	.	.	.	.	.
8B-'L	.	.	.	.	.	.	.	.
8c'J	.	.	.	.	.	.	.	.
=4	=4	=4	=4	=4	=4	=4	=4	=4
8d-	.	2r	.	2r	.	2r	.	.
8r	.	.	.	.	.	.	.	.
4r	.	.	.	.	.	.	.	.
=5	=5	=5	=5	=5	=5	=5	=5	=5
!	!	!	!LO:DY:a	!	!	!	!	!
4A-'	p	4c'	p p	4c'	.	4e-'	p	I
4A-'	.	4c'	.	4e-'	.	4a-'	.	.
=6	=6	=6	=6	=6	=6	=6	=6	=6
(4.F	.	(4.A-	.	(4.a-	.	(4.cc	.	V.ii
16GLL	.	16B-LL	.	16gLL	.	16b-LL	.	.
16A-JJ)	.	16cJJ)	.	16fJJ)	.	16a-JJ)	.	.
=7	=7	=7	=7	=7	=7	=7	=7	=7
8B-'L	.	8B-'L	.	8e-'L	.	8g'L	.	V(64)
8BB-'	.	8G'J	.	8e-'J	.	8b-'J	.	.
8BB-'	.	8F'L	.	8dX'L	.	8a-'L	.	V7
8BB-'J	.	8A-'J	.	8d'J	.	8f'J	.	.
=8	=8	=8	=8	=8	=8	=8	=8	=8
8E-	.	8G	.	8e-	.	8e-	.	I\\
8r	.	8r	.	8r	.	8r	.	.
4r	.	4r	.	4r	.	4r	.	.
=9	=9	=9	=9	=9	=9	=9	=9	=9
4E-'	.	2r	.	2r	.	2r	.	I.V7
4B-'	.	.	.	.	.	.	.	.
=10	=10	=10	=10	=10	=10	=10	=10	=10
(4.d-	.	2r	.	2r	.	2r	.	.
16cLL	.	.	.	.	.	.	.	.
16B-JJ)	.	.	.	.	.	.	.	.
=11	=11	=11	=11	=11	=11	=11	=11	=11
8A-'L	.	2r	.	2r	.	2r	.	I
8AX'J	.	.	.	.	.	.	.	.
8B-'L	.	.	.	.	.	.	.	.
8BX'J	.	.	.	.	.	.	.	.
=12	=12	=12	=12	=12	=12	=12	=12	=12
8c	.	2r	.	2r	.	2r	.	I6
8r	.	.	.	.	.	.	.	.
4r	.	.	.	.	.	.	.	.
=13	=13	=13	=13	=13	=13	=13	=13	=13
4c'	p	4g'	p	4b-'	p	4eeX'	p	V7/vi
4c'	.	4b-'	.	4eeX'	.	4gg'	.	.
=14	=14	=14	=14	=14	=14	=14	=14	=14
4.c	.	(4.dd-	.	(4.eeX	.	(4.bb-	.	.
8c	.	16ccLL	.	8ee)	.	16aa-LL	.	.
.	.	16b-JJ)	.	.	.	16ggJJ)	.	.
=15	=15	=15	=15	=15	=15	=15	=15	=15
8f'L	.	8a-'L	.	8cc'L	.	8ff'L	.	vi
8f'J	.	8a-'J	.	8cc'J	.	8aa-'J	.	.
8c'L	.	8b-'L	.	8dd-'L	.	8gg'L	.	V7/vi
8c'J	.	8b-'J	.	8cc'J	.	8eeX'J	.	.
=16	=16	=16	=16	=16	=16	=16	=16	=16
8F	.	8a-	.	8cc	.	8ff	.	vi
8r	.	8r	.	8r	.	8r	.	.
4r	.	4r	.	4r	.	4r	.	.
=17	=17	=17	=17	=17	=17	=17	=17	=17
(2A-	.	(2e-	.	(2g-	.	(4gg-	.	V7/IV
.	.	.	.	.	.	16ffLL	.	.
.	.	.	.	.	.	16ee-	.	.
.	.	.	.	.	.	16dd-	.	.
.	.	.	.	.	.	16ccJJ)	.	.
=18	=18	=18	=18	=18	=18	=18	=18	=18
.	.	.	.	.	.	8qee-/	.	IV
4D-)	.	4d-)	.	4f)	.	(16dd-LL	.	.
.	.	.	.	.	.	16cc	.	.
.	.	.	.	.	.	16dd-	.	.
.	.	.	.	.	.	16ee-JJ	.	.
4r	.	4r	.	4r	.	8ff)	.	.
.	.	.	.	.	.	8r	.	.
=19	=19	=19	=19	=19	=19	=19	=19	=19
!LO:TX:b:Bi:t=cresc.	!	!LO:TX:b:Bi:t=cresc.	!	!LO:TX:b:Bi:t=cresc.	!	!LO:TX:b:Bi:t=cresc.	!	!
[2E-	.	[2B-	.	[2g	.	(4.ddd-	.	V7
.	.	.	.	.	.	16bb-LL	.	.
.	.	.	.	.	.	16ggJJ	.	.
=20	=20	=20	=20	=20	=20	=20	=20	=20
8E-L]	.	8B-L]	.	8gL]	.	8ee-'L)	.	.
8D-'J	.	8G'J	.	8B-'J	.	8ee-'J	.	V2
8C'L	.	8A-'L	.	8c'L	.	8ee-'L	.	I6
8BB-'J	.	8B-'J	.	8d-'J	.	8ee-'J	.	V43
=21	=21	=21	=21	=21	=21	=21	=21	=21
!	!	!	!LO:DY:a	!	!	!	!	!
8AA-L	f	8cL	f f	4e-'	.	4ee-'	f	I
8A-J	.	8cJ	.	.	.	.	.	.
8A-L	.	8cL	.	4a-'	.	4aa-'	.	.
8A-J	.	8cJ	.	.	.	.	.	.
=22	=22	=22	=22	=22	=22	=22	=22	=22
8A-L	.	8cL	.	(4.cc	sf	(4.ccc	sf	.
8A-J	.	8cJ	.	.	.	.	.	.
8A-L	.	8cL	.	.	.	.	.	.
8A-J	.	8cJ	.	16b-LL	.	16bb-LL	.	.
.	.	.	.	16a-JJ)	.	16aa-JJ)	.	.
=23	=23	=23	=23	=23	=23	=23	=23	=23
8B-L	.	8d-L	.	8g'L	.	8gg'L	.	V43
8B-J	.	8d-J	.	8a-'J	.	8aa-'J	.	.
8B-L	.	8d-L	.	8b-'L	.	8bb-'L	.	.
8B-J	.	8d-J	.	8cc'J	.	8ccc'J	.	.
=24	=24	=24	=24	=24	=24	=24	=24	=24
8B-L	.	8d-L	.	8dd-	.	8ddd-	.	V43
8A-J	.	8cJ	.	8r	.	8r	.	.
!	!	!	!	!	!	!LO:TX:a:t=V65	!	!
8GL	.	8B-L	.	4r	.	4r	.	.
8FJ	.	8A-J	.	.	.	.	.	.
=25	=25	=25	=25	=25	=25	=25	=25	=25
8E-L	.	8GL	.	4e-'	.	4ee-'	.	V
8E-J	.	8GJ	.	.	.	.	.	.
8E-L	.	8GL	.	4b-'	.	4bb-'	.	.
8E-J	.	8GJ	.	.	.	.	.	.
=26	=26	=26	=26	=26	=26	=26	=26	=26
8E-L	.	8GL	.	(4.dd-	sf	(4.ddd-	sf	V7
8E-J	.	8GJ	.	.	.	.	.	.
8E-L	.	8GL	.	.	.	.	.	.
8D-J	.	8e-J	.	16ccLL	.	16cccLL	.	.
!	!	!	!	!	!	!LO:TX:a:t=V2	!	!
.	.	.	.	16b-JJ)	.	16bb-JJ)	.	.
=27	=27	=27	=27	=27	=27	=27	=27	=27
8CL	.	8e-L	.	8ee-'L	.	8eee-'L	.	I6
8FJ	.	8a-J	.	8cc'J	.	8ccc'J	.	vi
8D-L	.	8fL	.	8dd-'L	.	8ddd-'L	.	ii6
8E-J	.	8gJ	.	8b-'J	.	8bb-'J	.	V
=28	=28	=28	=28	=28	=28	=28	=28	=28
4AA-	.	4c	p	4a-	p	8aa-'L	p	I\\
.	.	.	.	.	.	(16cccL	.	.
.	.	.	.	.	.	16aa-JJ)	.	.
4r	.	8r	.	8r	.	[4ee-	.	.
.	.	(8a-	.	(8cc	.	.	.	.
=29	=29	=29	=29	=29	=29	=29	=29	=29
2r	.	4g)	.	4dd-)	.	8ee-L]	.	V65
.	.	.	.	.	.	(16ee-L	.	.
.	.	.	.	.	.	16ddXJJ)	.	.
.	.	8r	.	8r	.	[4ee-	.	.
.	.	(8g	.	(8dd-	.	.	.	.
=30	=30	=30	=30	=30	=30	=30	=30	=30
2r	.	8a-'L)	.	8cc'L)	.	8ee-L]	.	I
.	.	8f#X'J	.	8cc'J	.	(16ee-L	.	V2/IV
.	.	.	.	.	.	16ffJJ)	.	.
.	.	8f'L	.	8a-'L	.	8dd-'L	.	IV6
.	.	8g'J	.	8b-'J	.	(16dd-L	.	viio
.	.	.	.	.	.	16ee-JJ)	.	.
=31	=31	=31	=31	=31	=31	=31	=31	=31
2r	.	8a-'L	.	8cc'L	.	8cc'L	.	I
.	.	8f'J	.	8a-'J	.	(16ccL	.	vi
.	.	.	.	.	.	16dd-JJ)	.	.
.	.	8d-'L	.	8f'L	.	8b-'L	.	ii6
.	.	8e-'J	.	8g'J	.	(16b-L	.	V
.	.	.	.	.	.	16ccJJ)	.	.
=32	=32	=32	=32	=32	=32	=32	=32	=32
4AA-	p	4A-	.	4c	.	8a-L	.	I\\
.	.	.	.	.	.	(16ccL	.	.
.	.	.	.	.	.	16a-JJ)	.	.
8r	.	8r	.	8r	.	[4e-	.	.
(8A-	.	(8A-	.	(8c	.	.	.	.
=33	=33	=33	=33	=33	=33	=33	=33	=33
4G)	.	4B-)	.	4d-)	.	8e-L]	.	V65
.	.	.	.	.	.	(16e-L	.	.
.	.	.	.	.	.	16dXJJ)	.	.
8r	.	8r	.	8r	.	[4e-	.	.
(8G	.	(8B-	.	(8d-	.	.	.	.
=34	=34	=34	=34	=34	=34	=34	=34	=34
!LO:TX:b:Bi:t=cresc.	!	!LO:TX:b:Bi:t=cresc.	!	!LO:TX:b:Bi:t=cresc.	!	!LO:TX:b:Bi:t=cresc.	!	!
8AA-L)	.	8A-L)	.	8cL)	.	8e-L]	.	I
8A-J	.	8cJ	.	8e-J	.	(16e-L	.	.
.	.	.	.	.	.	16d-JJ	.	.
8A-L	.	8cL	.	8e-L	.	16cLL	.	.
.	.	.	.	.	.	16d-	.	.
8A-J	.	8cJ	.	8e-J	.	16c	.	.
.	.	.	.	.	.	16B-JJ)	.	.
=35	=35	=35	=35	=35	=35	=35	=35	=35
8FFL	.	8cL	.	8a-L	.	8A-'L	.	vi
8FJ	.	8cJ	.	8a-J	.	(16a-L	.	.
.	.	.	.	.	.	16gJJ	.	.
8FL	.	8B-L	.	8a-L	.	16a-LL	.	.
.	.	.	.	.	.	16b-	.	.
8FJ	.	8B-J	.	8a-J	.	16cc	.	.
.	.	.	.	.	.	16ddXJJ)	.	#viio6/V
=36	=36	=36	=36	=36	=36	=36	=36	=36
!	!	!	!	!	!LO:DY:a	!	!	!
4E-	f	4B-	f	4g	f f	8ee-'L	.	V
.	.	.	.	.	.	(16ee-L	.	.
.	.	.	.	.	.	16ddXJJ	.	.
4r	.	4r	.	4r	.	16ee-LL	.	.
.	.	.	.	.	.	16ff	.	.
.	.	.	.	.	.	16gg	.	.
.	.	.	.	.	.	16ee-JJ)	.	.
=37	=37	=37	=37	=37	=37	=37	=37	=37
2r	.	2r	.	2r	.	8aa-'L	.	.
.	.	.	.	.	.	(16aa-L	.	.
.	.	.	.	.	.	16ggJJ	.	.
.	.	.	.	.	.	16aa-LL	.	.
.	.	.	.	.	.	16bb-	.	.
.	.	.	.	.	.	16ccc	.	.
.	.	.	.	.	.	16dddXJJ)	.	.
=38	=38	=38	=38	=38	=38	=38	=38	=38
4EE-	ff	8r	.	8r	.	8eee-	ff	v.i
.	.	8e-	ff	8B- 8g-	ff	8r	.	.
4E-	.	8e-L	.	8B-L 8g-	.	4r	.	.
.	.	8e-J	.	8B-J 8g-	.	.	.	.
=39	=39	=39	=39	=39	=39	=39	=39	=39
(4.G-	sf	8e-L	.	8B-L 8g-	.	2r	.	i6
.	.	8e-J	.	8B-J 8g-	.	.	.	.
.	.	8e-L	.	8B-L 8g-	.	.	.	.
16FLL	.	8e-J	.	8B-J 8g-	.	.	.	.
16E-JJ)	.	.	.	.	.	.	.	.
=40	=40	=40	=40	=40	=40	=40	=40	=40
8DX'L	.	8fL	.	8B-L 8a-	.	[2bb-	ff	V65
8E-'J	.	8fJ	.	8B-J 8a-	.	.	.	.
8F'L	.	8fL	.	8B-L 8a-	.	.	.	.
8G'J	.	8fJ	.	8B-J 8a-	.	.	.	.
=41	=41	=41	=41	=41	=41	=41	=41	=41
8A-	.	8fL	.	8B-L 8a-	.	8bb-L]	.	V2
4r	.	8fJ	.	8B-J 8a-	.	(8ccc-XJ	.	.
.	.	8fL	.	8B-L 8a-	.	8bb-L	.	.
8r	.	8fJ	.	8B-J 8a-	.	8ccc-J)	.	.
=42	=42	=42	=42	=42	=42	=42	=42	=42
4BB-	.	8dXL	.	8B-L 8f	.	8bb-	.	V
.	.	8dJ	.	8B-J 8f	.	8r	.	.
4F	.	8dL	.	8B-L 8f	.	4r	.	.
.	.	8dJ	.	8B-J 8f	.	.	.	.
=43	=43	=43	=43	=43	=43	=43	=43	=43
(4.A-	sf	8dXL	.	8B-L 8f	.	2r	.	V2
.	.	8dJ	.	8B-J 8f	.	.	.	.
.	.	8dL	.	8B-L 8f	.	.	.	.
16GLL	.	8dJ	.	8B-J 8f	.	.	.	.
16FJJ)	.	.	.	.	.	.	.	.
=44	=44	=44	=44	=44	=44	=44	=44	=44
8E-'L	.	8e-L	.	8B-L 8g-	.	[2eee-	.	i
8F'J	.	8e-J	.	8g-J	.	.	.	.
8G-'L	.	8e-L	.	8g-L	.	.	.	.
8A-'J	.	8e-J	.	8g-J	.	.	.	.
=45	=45	=45	=45	=45	=45	=45	=45	=45
8B-	.	8e-L	.	8g-L	.	(8eee-L]	.	i64
4r	.	8e-J	.	8g-J	.	8dddXJ	.	.
.	.	8e-L	.	8g-L	.	8eee-L	.	.
8r	.	8e-J	.	8g-J	.	8dddJ)	.	.
=46	=46	=46	=46	=46	=46	=46	=46	=46
8C-XL	.	8e-L	.	8g-L	.	4eee-'	.	VI
8D-J	.	8e-J	.	8g-J	.	.	.	.
8E-L	.	8e-L	.	8g-L	.	[4ggg-	.	.
8F-XJ	.	8e-J	.	8g-J	.	.	.	.
=47	=47	=47	=47	=47	=47	=47	=47	=47
8G-	.	8e-L	.	8g-L	.	(8ggg-L]	.	.
4r	.	8e-J	.	8g-J	.	8fffJ	.	.
.	.	8e-L	.	8g-L	.	8ggg-L	.	.
8r	.	8e-J	.	8g-J	.	8fffJ)	.	.
=48	=48	=48	=48	=48	=48	=48	=48	=48
8AAXL	.	8e-L	.	8g-L	.	4ggg-	.	#viio7/V
8BB-J	.	8e-J	.	8g-J	.	.	.	.
8CL	.	8e-L	.	8g-L	.	[4gg-	.	.
8DXJ	.	8e-J	.	8g-J	.	.	.	.
=49	=49	=49	=49	=49	=49	=49	=49	=49
4E-	.	(8e-L	.	(8g-L	.	(8gg-L]	.	.
.	.	8dXJ)	.	8fJ)	.	8ffJ)	.	.
4AAX	.	8e-'L	.	8g-'L	.	8gg-'L	.	.
.	.	8e-'J	.	8g-'J	.	8gg-'J	.	.
=50	=50	=50	=50	=50	=50	=50	=50	=50
4BB-'	.	4dX'	.	4f'	.	8ff'L	.	V
.	.	.	.	.	.	8b-'J	.	.
8r	.	8r	.	8r	.	[4bb-	.	.
8B-'	.	8b-'	.	8ddX'	.	.	.	.
=51	=51	=51	=51	=51	=51	=51	=51	=51
4BB-'	.	4aX'	.	4e-'	.	8bb-L]	.	V(64)
.	.	.	.	.	.	8ccJ	.	.
8r	.	8r	.	8r	.	[4ccc	.	.
8B-'	.	8a'	.	8ee-'	.	.	.	.
=52	=52	=52	=52	=52	=52	=52	=52	=52
4BB-'	.	4a-'	.	4f'	.	8cccL]	.	V9
.	.	.	.	.	.	8ddXJ	.	.
8r	.	8r	.	8r	.	[4dddX	.	V7
8B-'	.	8a-'	.	8ff'	.	.	.	.
=53	=53	=53	=53	=53	=53	=53	=53	=53
4BB-'	.	4g'	.	4g'	.	8dddL]	.	V(64#7)
.	.	.	.	.	.	8ee-J	.	.
8r	.	8r	.	8r	.	[4eee-	.	V(64)
8B-'	.	8g'	.	8gg'	.	.	.	.
=54	=54	=54	=54	=54	=54	=54	=54	=54
4BB-	.	4dX	.	4a-	.	8eee-L]	f	V7
!	!	!	!	!	!	!LO:TX:a:Bi:t=decresc.	!	!
.	.	.	.	.	.	(8ffJ	.	.
4r	.	4r	.	4r	.	8fffL)	.	.
.	.	.	.	.	.	8eee-J	.	.
=55	=55	=55	=55	=55	=55	=55	=55	=55
2r	.	2r	.	2r	.	8dddX'L	.	.
.	.	.	.	.	.	8ccc'J	.	.
.	.	.	.	.	.	8bb-'L	.	.
.	.	.	.	.	.	8aa-'J	.	.
=56	=56	=56	=56	=56	=56	=56	=56	=56
!	!	!	!LO:DY:a	!	!	!	!	!
2r	.	2r	p	8e-'L	.	8gg	p	V.I
.	.	.	.	8g'J	.	4gg	.	.
.	.	.	.	8b-'L	.	.	.	.
.	.	.	.	8ddX'J	.	[8gg	.	.
=57	=57	=57	=57	=57	=57	=57	=57	=57
2r	.	2r	.	8ee-'L	.	8ggL]	.	.
.	.	.	.	8ddX'J	.	8ggJ	.	.
.	.	.	.	8ee-'L	.	(16aa-LL	.	.
.	.	.	.	.	.	16gg	.	.
.	.	.	.	8cc'J	.	16ff	.	.
.	.	.	.	.	.	16ggJJ)	.	.
=58	=58	=58	=58	=58	=58	=58	=58	=58
2r	.	2r	.	8a-	.	(8aa-L	.	ii6
.	.	.	.	8r	.	8ffJ	.	.
.	.	.	.	8aX	.	8ggL	.	#vii%7/V
.	.	.	.	8r	.	8ee-J)	.	.
=59	=59	=59	=59	=59	=59	=59	=59	=59
2r	.	2r	.	4b-	.	(8ee-L	.	V\\
.	.	.	.	.	.	8ddXJ	.	.
.	.	.	.	4r	.	8ccL	.	.
.	.	.	.	.	.	8b-J)	.	.
=60	=60	=60	=60	=60	=60	=60	=60	=60
2r	.	8e-'L	p	8g'L	.	8bb-	.	I
.	.	8g'J	.	8b-'J	.	4bb-	.	I64
.	.	8b-'L	.	8ee-'L	.	.	.	.
.	.	8ddX'J	.	8ff'J	.	[8bb-	.	V6
=61	=61	=61	=61	=61	=61	=61	=61	=61
2r	.	8ee-'L	.	8gg'L	.	8bb-L]	.	I
.	.	8ddX'J	.	8ff'J	.	8bb-J	.	V6
.	.	8ee-'L	.	8gg'L	.	(16cccLL	.	I
.	.	.	.	.	.	16bb-	.	.
.	.	8cc'J	.	8ee-'J	.	16aa-	.	IV6
.	.	.	.	.	.	16bb-JJ)	.	.
=62	=62	=62	=62	=62	=62	=62	=62	=62
2r	.	8a-'L	.	8cc'L	.	8cccL	.	IV
.	.	8f'J	.	8cc'J	.	8aa-J	.	vi
.	.	8b-'L	.	8a-'L	.	8ffL	.	V7
.	.	8B-'J	.	8f'J	.	8ddXJ	.	.
=63	=63	=63	=63	=63	=63	=63	=63	=63
2r	.	(16e-LL	.	4g	.	4ee-	.	I\\
.	.	16g	.	.	.	.	.	.
.	.	16f	.	.	.	.	.	.
.	.	16e-JJ	.	.	.	.	.	.
!	!	!	!	!	!	!LO:TX:a:t=V	!	!
.	.	16dXLL	.	4r	.	4r	.	.
.	.	16c	.	.	.	.	.	.
.	.	16B-	.	.	.	.	.	.
.	.	16A-JJ)	.	.	.	.	.	.
=64	=64	=64	=64	=64	=64	=64	=64	=64
8EE-'L	p	8G	p	2r	.	2r	.	I
8GG'J	.	4G	.	.	.	.	.	.
8BB-'L	.	.	.	.	.	.	.	.
8DX'J	.	[8G	.	.	.	.	.	.
=65	=65	=65	=65	=65	=65	=65	=65	=65
8E-L	.	8GL]	.	2r	.	2r	.	.
8DXJ	.	8GJ	.	.	.	.	.	.
8E-L	.	(16A-LL	.	.	.	.	.	.
.	.	16G	.	.	.	.	.	.
8E-J	.	16F	.	.	.	.	.	.
.	.	16GJJ)	.	.	.	.	.	.
=66	=66	=66	=66	=66	=66	=66	=66	=66
!	!	!	!	!	!	!LO:TX:a:t=I	!	!
!	!	!	!	!	!	!LO:TX:a:t=V6	!	!
4F	.	4A-	.	8dX'L	.	8aa-'L	.	viio6
.	.	.	.	8f'J	.	8ff'J	.	.
4r	.	4r	.	8a-'L	.	8ddX'L	.	.
.	.	.	.	8ddX'J	.	8a-'J	.	.
=67	=67	=67	=67	=67	=67	=67	=67	=67
2r	.	2r	.	8ffL	.	8a-'L	.	.
.	.	.	.	8fJ	.	8a-'J	.	.
.	.	.	.	8fL	.	(16b-LL	.	.
.	.	.	.	.	.	16a-	.	.
.	.	.	.	8fJ	.	16g	.	.
.	.	.	.	.	.	16a-JJ)	.	.
=68	=68	=68	=68	=68	=68	=68	=68	=68
8GG'L	.	8B-	.	4B-	.	4b-	.	I6
8BB-'J	.	4B-	.	.	.	.	.	.
8E-'L	.	.	.	4r	.	4r	.	.
8F'J	.	[8B-	.	.	.	.	.	.
=69	=69	=69	=69	=69	=69	=69	=69	=69
8GL	.	8B-L]	.	2r	.	2r	.	.
8F#XJ	.	8B-'J	.	.	.	.	.	.
8GL	.	(16cLL	.	.	.	.	.	.
.	.	16B-	.	.	.	.	.	.
8GJ	.	16A-	.	.	.	.	.	.
.	.	16B-JJ)	.	.	.	.	.	.
=70	=70	=70	=70	=70	=70	=70	=70	=70
4A-	.	4c	.	8A-'L	.	8ccc'L	.	IV
.	.	.	.	8c'J	.	8aa-'J	.	.
4r	.	4r	.	8e-'L	.	8ee-'L	.	.
.	.	.	.	8a-'J	.	8cc'J	.	.
=71	=71	=71	=71	=71	=71	=71	=71	=71
2r	.	2r	.	8a-L	.	8cc'L	.	.
.	.	.	.	8a-J	.	8cc'J	.	.
.	.	.	.	8a-L	.	(16ddXLL	.	.
.	.	.	.	.	.	16cc	.	.
.	.	.	.	8a-J	.	16b-	.	.
.	.	.	.	.	.	16ccJJ)	.	.
=72	=72	=72	=72	=72	=72	=72	=72	=72
4B-	sf	4r	.	4a-	.	8ddXL	sf	V7
.	.	.	.	.	.	8ddJ	.	.
4r	.	4f	sf	4a-	sf	(16ee-LL	.	.
.	.	.	.	.	.	16dd	.	.
.	.	.	.	.	.	16cc	.	.
.	.	.	.	.	.	16ddJJ)	.	.
=73	=73	=73	=73	=73	=73	=73	=73	=73
4B-	sf	4r	.	4r	.	8ee-L	.	V(64)
.	.	.	.	.	.	8ee-J	.	.
4r	.	4e-	sf	4g	sf	(16ffLL	.	.
.	.	.	.	.	.	16ee-	.	.
.	.	.	.	.	.	16ddX	.	.
.	.	.	.	.	.	16ee-JJ)	.	.
=74	=74	=74	=74	=74	=74	=74	=74	=74
4B-	sf	4r	.	4r	.	8ffL	.	V
.	.	.	.	.	.	8ffJ	.	.
4r	.	4dX	sf	4f	sf	(16ggLL	.	.
.	.	.	.	.	.	16ff	.	.
.	.	.	.	.	.	16ee-	.	.
.	.	.	.	.	.	16ffJJ)	.	.
=75	=75	=75	=75	=75	=75	=75	=75	=75
4B-	sf	4r	.	4r	.	8ggL	.	V(64)
.	.	.	.	.	.	8ggJ	.	.
4r	.	4c	sf	4e-	.	(16aa-LL	sf	.
.	.	.	.	.	.	16gg	.	.
.	.	.	.	.	.	16ff	.	.
.	.	.	.	.	.	16ggJJ)	.	.
=76	=76	=76	=76	=76	=76	=76	=76	=76
2BB-	p	2B-	p	2dX	p	(4aa-	p	V7
.	.	.	.	.	.	4ff	.	.
=77	=77	=77	=77	=77	=77	=77	=77	=77
(4C-X	.	(4c-X	.	(4a-	.	2ddX)	.	viio64
4AA-	.	4A-	.	4f	.	.	.	.
=78	=78	=78	=78	=78	=78	=78	=78	=78
2BB-)	.	2B-)	.	2dX)	.	(4dddX	.	V7
.	.	.	.	.	.	4aa-	.	.
=79	=79	=79	=79	=79	=79	=79	=79	=79
(4C-X	.	(4c-X	.	(4a-	.	2ff)	.	viio64
4AA-	.	4A-	.	4f	.	.	.	.
=80	=80	=80	=80	=80	=80	=80	=80	=80
2BB-)	.	2B-)	.	2dX)	.	(4fff	.	V
.	.	.	.	.	.	4dddX	.	.
=81	=81	=81	=81	=81	=81	=81	=81	=81
(4C-X	.	(4c-X	.	(4a-	.	2aa-)	.	viio64
4AA-	.	4A-	.	4f	.	.	.	.
=82	=82	=82	=82	=82	=82	=82	=82	=82
2BB-)	.	2B-)	.	2dX)	.	(4aaa-	.	V7
.	.	.	.	.	.	4fff	.	.
=83	=83	=83	=83	=83	=83	=83	=83	=83
(4C-X	.	(4c-X	.	(4a-	.	2dddX)	.	viio64
4AA-)	.	4A-)	.	4f)	.	.	.	.
=84	=84	=84	=84	=84	=84	=84	=84	=84
!LO:TX:b:Bi:t=cresc.	!	!LO:TX:b:Bi:t=cresc.	!	!LO:TX:b:Bi:t=cresc.	!	!LO:TX:b:Bi:t=cresc.	!	!
(8AAXL	.	[2AX	.	[2c [2e-	.	(8ggg-L	.	#viio7/V
8CJ	.	.	.	.	.	8eee-J	.	.
8E-L	.	.	.	.	.	8cccL	.	.
8F#XJ)	.	.	.	.	.	8aaXJ	.	.
=85	=85	=85	=85	=85	=85	=85	=85	=85
4AX	.	8AL]	.	8c] 8e-]	.	8ff#XL	.	.
.	.	(8c	.	4e-	.	8ee-J	.	.
8r	.	8e-	.	.	.	8ccL	.	.
!	!	!	!	!	!	!LO:TX:a:t=#viio65/V	!	!
8C	.	8g-J)	.	[8e-	.	8aXJ)	.	.
=86	=86	=86	=86	=86	=86	=86	=86	=86
!	!	!	!LO:DY:a	!	!	!	!	!
8BB-'L	f	8gX'L	f f	8e-L]	.	(4.b-	f	V(64)
8BB-'J	.	8GX'J	.	8e-'J	.	.	.	.
8BB-'L	.	8G'L	.	8e-'L	.	.	.	.
8BB-'J	.	8G'J	.	8e-'J	.	16gLL	.	.
.	.	.	.	.	.	16e-JJ)	.	.
=87	=87	=87	=87	=87	=87	=87	=87	=87
8BB-L	.	8A-L	.	8dXL	.	2fT	.	V7
8BB-J	.	8A-J	.	8dJ	.	.	.	.
8BB-L	.	8A-L	.	8dL	.	.	.	.
8BB-J	.	8A-J	.	8dJ	.	.	.	.
=88	=88	=88	=88	=88	=88	=88	=88	=88
2B-	p	2r	.	2r	.	(4ddX	p	.
.	.	.	.	.	.	4a-	.	.
=89	=89	=89	=89	=89	=89	=89	=89	=89
(4c-X	.	(4a-	p	2r	.	2f)	.	viio64
4A-	.	4f)	.	.	.	.	.	.
=90	=90	=90	=90	=90	=90	=90	=90	=90
2B-)	.	2r	.	(4a-	p	(4ff	.	V7
.	.	.	.	4f)	.	4ddX	.	.
=91	=91	=91	=91	=91	=91	=91	=91	=91
(4c-X	.	(4a-	.	2r	.	2a-)	.	viio64
4A-	.	4f)	.	.	.	.	.	.
=92	=92	=92	=92	=92	=92	=92	=92	=92
2B-)	.	2r	.	(4ff	.	(4aa-	.	V7
.	.	.	.	4ddX)	.	4ff	.	.
=93	=93	=93	=93	=93	=93	=93	=93	=93
(4c-X	.	(4a-	.	2r	.	2ddX)	.	viio64
4A-	.	4f)	.	.	.	.	.	.
=94	=94	=94	=94	=94	=94	=94	=94	=94
4B-)	pp	2r	.	2r	.	(8aa-L	pp	V7
.	.	.	.	.	.	8ffJ	.	.
(8c-XL	.	.	.	.	.	4ddX	.	viio2
8A-J	.	.	.	.	.	.	.	.
=95	=95	=95	=95	=95	=95	=95	=95	=95
4F)	.	4A-	pp	2r	.	8ccc-XL	.	#viio7/bVII
.	.	.	.	.	.	8aa-J	.	.
(8A-L	.	(8c-XL	.	.	.	4ff)	.	.
8FJ	.	8A-J	.	.	.	.	.	.
=96	=96	=96	=96	=96	=96	=96	=96	=96
[2D-)	.	(2F)	.	(8A-L	.	(2ccc-X	pp	.bVII.V7
.	.	.	.	8d-J	.	.	.	.
.	.	.	.	8A-L	.	.	.	.
.	.	.	.	8d-J)	.	.	.	.
=97	=97	=97	=97	=97	=97	=97	=97	=97
2D-_	.	2G-	.	(8B-L	.	8bb-L	.	V(64)
.	.	.	.	8d-J	.	8aaXJ	.	.
.	.	.	.	8B-L	.	8bb-L	.	.
.	.	.	.	8d-J)	.	8gg-J)	.	.
=98	=98	=98	=98	=98	=98	=98	=98	=98
2D-_	.	2A-	.	(8c-XL	.	4ff'	.	V7
.	.	.	.	8d-J	.	.	.	.
.	.	.	.	8c-L	.	4ff'	.	.
.	.	.	.	8d-J)	.	.	.	.
=99	=99	=99	=99	=99	=99	=99	=99	=99
2D-_	.	2G-)	.	(8B-L	.	(4.gg-	.	V(64)
.	.	.	.	8d-J	.	.	.	.
.	.	.	.	8B-L	.	.	.	.
.	.	.	.	8d-J)	.	16aa-LL	.	.
.	.	.	.	.	.	16bb-JJ)	.	.
=100	=100	=100	=100	=100	=100	=100	=100	=100
2D-_	.	(2F	.	(8A-L	.	(2ccc-X	.	V7
.	.	.	.	8d-J	.	.	.	.
.	.	.	.	8A-L	.	.	.	.
.	.	.	.	8d-J)	.	.	.	.
=101	=101	=101	=101	=101	=101	=101	=101	=101
2D-_	.	2G-	.	(8B-L	.	8bb-L	.	V(64)
.	.	.	.	8d-J	.	8aaXJ	.	.
.	.	.	.	8B-L	.	8bb-L	.	.
.	.	.	.	8d-J)	.	8gg-J)	.	.
=102	=102	=102	=102	=102	=102	=102	=102	=102
2D-]	.	2A-	.	(8c-XL	.	4ff'	.	V7
.	.	.	.	8d-J	.	.	.	.
.	.	.	.	8c-L	.	4ff'	.	.
.	.	.	.	8d-J)	.	.	.	.
=103	=103	=103	=103	=103	=103	=103	=103	=103
2G-	.	2G-)	.	(8B-L	.	(4.gg-	.	I\\
.	.	.	.	8d-J	.	.	.	.
.	.	.	.	8B-L	.	.	.	.
.	.	.	.	8d-J)	.	8ff)	.	.
=104	=104	=104	=104	=104	=104	=104	=104	=104
!LO:TX:b:Bi:t=cresc.	!	!	!	!LO:TX:b:Bi:t=cresc.	!	!LO:TX:b:Bi:t=cresc.	!	!
8GXL	.	8d-L	.	8B-L	.	[2eeX	.	V.#viio65/ii
8GJ	.	8B-J	.	8d-J	.	.	.	.
8GL	.	8B-L	.	8d-L	.	.	.	.
8GJ	.	8B-J	.	8d-J	.	.	.	.
=105	=105	=105	=105	=105	=105	=105	=105	=105
8GL	.	8B-L	.	8d-L	.	2ee]	.	.
8GJ	.	8B-J	.	8d-J	.	.	.	.
8GL	.	8B-L	.	8d-L	.	.	.	.
8GJ	.	8B-J	.	8d-J	.	.	.	.
=106	=106	=106	=106	=106	=106	=106	=106	=106
8FL	.	8B-L	.	8dXL	.	(4.ff	.	V(64)/V
8FJ	.	8B-J	.	8dJ	.	.	.	.
8FL	.	8B-L	.	8dL	.	.	.	.
8FJ	.	8B-J	.	8dJ	.	16ddXLL	.	.
.	.	.	.	.	.	16b-JJ)	.	.
=107	=107	=107	=107	=107	=107	=107	=107	=107
8FL	.	8AXL	.	8e-L	.	2cct	.	V7/V
8FJ	.	8AJ	.	8e-J	.	.	.	.
8FL	.	8AL	.	8e-L	.	.	.	.
8FJ	.	8AJ	.	8e-J	.	.	.	.
=108	=108	=108	=108	=108	=108	=108	=108	=108
8BB-L	f	8A-L	f	8fL	f	[2ddXt	f	V7
8B-J	.	8fJ	.	8a-J	.	.	.	.
8B-L	.	8fL	.	8a-L	.	.	.	.
8B-J	.	8fJ	.	8a-J	.	.	.	.
=109	=109	=109	=109	=109	=109	=109	=109	=109
8BXL	.	8fL	.	8a-L	.	2dd]	.	#viio7/vi
8BJ	.	8fJ	.	8a-J	.	.	.	.
8BL	.	8fL	.	8a-L	.	.	.	.
8BJ	.	8fJ	.	8a-J	.	.	.	.
.	.	.	.	.	.	(16qqcc/LL	.	.
.	.	.	.	.	.	16qqddX/JJ)	.	.
=110	=110	=110	=110	=110	=110	=110	=110	=110
8cL	ff	8e-L	ff	8gL	ff	4ee-T	ff	vi
8cJ	.	8e-J	.	8gJ	.	.	.	.
.	.	.	.	.	.	(16qqddX/LL	.	.
.	.	.	.	.	.	16qqee-/JJ)	.	.
8AXL	.	8e-L	.	8ccL	.	4ffT	.	V65/V
8AJ	.	8e-J	.	8ccJ	.	.	.	.
.	.	.	.	.	.	(16qqee-/LL	.	.
.	.	.	.	.	.	16qqff/JJ)	.	.
=111	=111	=111	=111	=111	=111	=111	=111	=111
8B-L	.	8e-L	.	8b-L	.	4gg'	.	V(64)
8B-J	.	8e-J	.	8b-J	.	.	.	.
8BB-L	.	8dXL	.	8a-L	.	4ff'	.	V7
8BB-J	.	8dJ	.	8a-J	.	.	.	.
=112	=112	=112	=112	=112	=112	=112	=112	=112
(16E-LL	.	4e-'	.	4g'	.	4ee-	.	I\\
16F	.	.	.	.	.	.	.	.
16G	.	.	.	.	.	.	.	.
16A-JJ	.	.	.	.	.	.	.	.
16B-LL	.	4e-'	.	4ee-'	.	4r	.	I[I
16A-	.	.	.	.	.	.	.	.
16G	.	.	.	.	.	.	.	.
16FJJ	.	.	.	.	.	.	.	.
=113	=113	=113	=113	=113	=113	=113	=113	=113
16E-LL	.	(4.g	ff	(4.gg	ff	2r	.	.
16F	.	.	.	.	.	.	.	.
16G	.	.	.	.	.	.	.	.
16A-JJ	.	.	.	.	.	.	.	.
16B-LL	.	.	.	.	.	.	.	.
16c	.	.	.	.	.	.	.	.
16dX	.	16fLL	.	16ffLL	.	.	.	.
16e-JJ)	.	16e-JJ)	.	16ee-JJ)	.	.	.	.
=114	=114	=114	=114	=114	=114	=114	=114	=114
8E-L	.	8dXL	.	(16ddXLL	.	4bb-'	.	viio
.	.	.	.	16ee-	.	.	.	.
8E-J	.	8a-J	.	16ff	.	.	.	.
.	.	.	.	16ggJJ	.	.	.	.
8E-L	.	8a-L	.	16aa-LL	.	4fff'	.	viio64
.	.	.	.	16gg	.	.	.	.
8E-J	.	8a-J	.	16ff	.	.	.	.
.	.	.	.	16ee-JJ	.	.	.	.
=115	=115	=115	=115	=115	=115	=115	=115	=115
8E-L	.	8a-L	.	16ddXLL	.	(4.aaa-	sf	.
.	.	.	.	16ee-	.	.	.	.
8E-J	.	8a-J	.	16ff	.	.	.	.
.	.	.	.	16ee-JJ	.	.	.	.
8E-L	.	8a-L	.	16ddLL	.	.	.	.
.	.	.	.	16b-	.	.	.	.
8E-J	.	8a-J	.	16cc	.	16gggLL	.	.
.	.	.	.	16ddJJ)	.	16fffJJ)	.	.
=116	=116	=116	=116	=116	=116	=116	=116	=116
(16EE-LL	.	8gL	.	8ee-L	.	4eee-	.	I
16FF	.	.	.	.	.	.	.	.
16GG	.	8B-J	.	8b-J	.	.	.	.
16AA-JJ	.	.	.	.	.	.	.	.
16BB-LL	.	8e-L	.	8ee-L	.	4r	.	.
16AA-	.	.	.	.	.	.	.	.
16GG	.	8e-J	.	8ee-J	.	.	.	.
16FFJJ	.	.	.	.	.	.	.	.
=117	=117	=117	=117	=117	=117	=117	=117	=117
16EE-LL	.	(4.g	sf	(4.gg	sf	2r	.	.
16FF	.	.	.	.	.	.	.	.
16GG	.	.	.	.	.	.	.	.
16AA-JJ	.	.	.	.	.	.	.	.
16BB-LL	.	.	.	.	.	.	.	.
16C	.	.	.	.	.	.	.	.
16DX	.	16fLL	.	16ffLL	.	.	.	.
16E-JJ)	.	16e-JJ)	.	16ee-JJ)	.	.	.	.
=118	=118	=118	=118	=118	=118	=118	=118	=118
8EE-L	.	(16dXLL	.	(16ddXLL	.	8bb-L	.	V65
.	.	16e-	.	16ee-	.	.	.	.
8E-J	.	16f	.	16ff	.	8bb-J	.	.
.	.	16gJJ	.	16ggJJ	.	.	.	.
8E-L	.	16a-LL	.	16aa-LL	.	8fffL	.	.
.	.	16g	.	16gg	.	.	.	.
8E-J	.	16f	.	16ff	.	8fffJ	.	.
.	.	16e-JJ	.	16ee-JJ	.	.	.	.
=119	=119	=119	=119	=119	=119	=119	=119	=119
8E-L	.	16dXLL	.	16ddXLL	.	(4.aaa-	sf	.
.	.	16e-	.	16ee-	.	.	.	.
8E-J	.	16f	.	16ff	.	.	.	.
.	.	16e-JJ	.	16ee-JJ	.	.	.	.
8E-L	.	16dLL	.	16ddLL	.	.	.	.
.	.	16B-	.	16b-	.	.	.	.
8E-J	.	16c	.	16cc	.	16gggLL	.	.
.	.	16dJJ)	.	16ddJJ)	.	16fffJJ)	.	.
=120	=120	=120	=120	=120	=120	=120	=120	=120
8EE-L	.	8e-	.	8ee-	.	8eee-'L	.	I
8E-J	.	4a-	.	4ddX	.	(16fffL	.	viio64
.	.	.	.	.	.	16gggJJ	.	.
8E-L	.	.	.	.	.	8aaa-'L)	.	.
8E-J	.	8a-	.	8dd	.	(16gggL	.	.
.	.	.	.	.	.	16fffJJ	.	.
=121	=121	=121	=121	=121	=121	=121	=121	=121
8EE-L	.	8g	.	8ee-	.	8eee-'L)	.	I6
8E-J	.	4A-	.	4dX	.	(16fffL	.	viio64
.	.	.	.	.	.	16gggJJ	.	.
8E-L	.	.	.	.	.	8aaa-'L)	.	.
8E-J	.	8A-	.	8d	.	(16gggL	.	.
.	.	.	.	.	.	16fffJJ	.	.
=122	=122	=122	=122	=122	=122	=122	=122	=122
4EE-	.	4G	.	4e-	.	4eee-')	.	I6]
4r	.	4r	.	4b-	.	4bb-'	.	.
=123	=123	=123	=123	=123	=123	=123	=123	=123
4B-'	.	4b-'	.	2g	sf	2gg	sf	I6
4G'	.	4g'	.	.	.	.	.	.
=124	=124	=124	=124	=124	=124	=124	=124	=124
2E-	sf	2e-	sf	4b-'	.	4bb-'	.	I
.	.	.	.	4g'	.	4gg'	.	.
=125	=125	=125	=125	=125	=125	=125	=125	=125
4G'	.	4g'	.	2e-	sf	2ee-	sf	I6
4E-'	.	4e-'	.	.	.	.	.	.
=126	=126	=126	=126	=126	=126	=126	=126	=126
2BB-	sf	2B-	sf	4g'	.	4gg'	.	I64
.	.	.	.	4e-'	.	4ee-'	.	.
=127	=127	=127	=127	=127	=127	=127	=127	=127
!	!	!	!LO:DY:a	!	!	!	!	!
4E-'	.	4e-'	sf	2B-	.	2b-	sf	I
4BB-'	.	4B-'	.	.	.	.	.	.
=128	=128	=128	=128	=128	=128	=128	=128	=128
4GG	.	4G	.	4e-	.	8ee-'L	.	I6
.	.	.	.	.	.	8b-'J	.	.
!	!	!	!LO:DY:a	!	!	!	!	!
8B-'L	.	[4G	sf sf	[4B-	.	4g	sf	.
8G'J	.	.	.	.	.	.	.	.
=129	=129	=129	=129	=129	=129	=129	=129	=129
4E-	sf	4G]	.	4B-]	.	8b-'L	.	I
.	.	.	.	.	.	8g'J	.	.
!	!	!	!LO:DY:a	!	!LO:DY:a	!	!	!
8G'L	.	[4G	sf sf	[4B-	sf	4e-	.	.
8E-'J	.	.	.	.	.	.	.	.
=130	=130	=130	=130	=130	=130	=130	=130	=130
4BB-	sf	4G]	.	4B-]	.	8g'L	.	I64
.	.	.	.	.	.	8e-'J	.	.
!	!LO:DY:a	!	!LO:DY:a	!	!LO:DY:a	!	!	!
8E-'L	sf	[4G	sf	[4B-	sf	4B-	.	.
8BB-'J	.	.	.	.	.	.	.	.
=131	=131	=131	=131	=131	=131	=131	=131	=131
4GG	sf	4G]	.	4B-]	.	8b-'L	.	I6
.	.	.	.	.	.	8g'J	.	.
!	!LO:DY:a	!	!LO:DY:a	!	!LO:DY:a	!	!	!
8BB-'L	sf	[4G	sf	[4B-	sf	4e-	.	.
8GG'J	.	.	.	.	.	.	.	.
=132	=132	=132	=132	=132	=132	=132	=132	=132
4EE-	sf	4G]	.	4B-]	.	8b-'L	.	I
.	.	.	.	.	.	8g'J	.	.
!	!	!	!LO:DY:a	!	!LO:DY:a	!	!	!
8BB-'L	.	[4G	sf sf	[4B-	sf	4e-	.	.
8GG'J	.	.	.	.	.	.	.	.
=133	=133	=133	=133	=133	=133	=133	=133	=133
4EE-	sf	4G]	.	4B-]	.	8b-'L	.	.
.	.	.	.	.	.	8g'J	.	.
!	!LO:DY:a	!	!LO:DY:a	!	!LO:DY:a	!	!	!
8BB-'L	sf	[4G	sf	[4B-	sf	4e-	.	.
8GG'J	.	.	.	.	.	.	.	.
=134	=134	=134	=134	=134	=134	=134	=134	=134
!	!LO:DY:a	!	!	!	!	!	!	!
2EE-	sf	4G]	.	4B-]	.	8b-'L	.	.
.	.	.	.	.	.	8g'J	.	.
!	!	!	!LO:DY:a	!	!	!	!	!
.	.	[4G	sf	[4B-	.	[4e-	sf	.
=135	=135	=135	=135	=135	=135	=135	=135	=135
!LO:TX:b:Bi:t=decresc.	!	!LO:TX:b:Bi:t=decresc.	!	!LO:TX:b:Bi:t=decresc.	!	!LO:TX:b:Bi:t=decresc.	!	!
8BB-'L	.	2G_	.	2B-_	.	2e-]	.	I64
8GG'J	.	.	.	.	.	.	.	.
[4EE-	.	.	.	.	.	.	.	.
=136	=136	=136	=136	=136	=136	=136	=136	=136
!	!	!	!LO:DY:a	!	!	!LO:TX:a:t=I	!	!
2EE-]	p	4G]	p p	4B-]	.	(8b-L	p	.
.	.	.	.	.	.	8gJ)	.	.
.	.	[4G	.	[4B-	.	[4e-	.	.
=137	=137	=137	=137	=137	=137	=137	=137	=137
(8BB-L	.	2G_	.	2B-_	.	2e-]	.	.
8GGJ)	.	.	.	.	.	.	.	.
[4EE-	.	.	.	.	.	.	.	.
=138	=138	=138	=138	=138	=138	=138	=138	=138
!	!	!	!LO:DY:a	!	!	!	!	!
2EE-]	pp	4G]	pp pp	4B-]	.	(8b-L	pp	.
.	.	.	.	.	.	8gJ)	.	.
.	.	[4G	.	[4B-	.	[4d-	.	V7/IV
=139	=139	=139	=139	=139	=139	=139	=139	=139
(8D-L	.	2G;]	.	2B-;]	.	2d-;]	.	.
8BB-J)	.	.	.	.	.	.	.	.
4EE-;	.	.	.	.	.	.	.	.
=140||	=140||	=140||	=140||	=140||	=140||	=140||	=140||	=140||
!	!	!	!LO:DY:a	!	!	!	!	!
4FF-X'	p	4A-'	p p	4A-'	.	4c-X'	p	.bVI.I
4F-X'	.	4A-'	.	4c-X'	.	4f-X'	.	.
=141	=141	=141	=141	=141	=141	=141	=141	=141
4.F-X	.	4.A-	.	4.c-X	.	(4.a-	.	.
8F-	.	8A-	.	8c-	.	16g-LL	.	.
.	.	.	.	.	.	16f-XJJ)	.	.
=142	=142	=142	=142	=142	=142	=142	=142	=142
8G'L	.	8B--X'L	.	8c-X'L	.	8e-'L	.	V43
8F-X'J	.	8A-'J	.	8c-'J	.	8f-X'J	.	I
8E-'L	.	8G-'L	.	8c-'L	.	8g-'L	.	V2
8D-'J	.	8F-X'J	.	8c-'J	.	8a-'J	.	vi7
=143	=143	=143	=143	=143	=143	=143	=143	=143
8C-X	.	8E-	.	8c-X	.	8b--X	.	V7
4r	.	4r	.	4r	.	4r	.	.
8r	.	8r	.	8r	.	8r	.	.
=144	=144	=144	=144	=144	=144	=144	=144	=144
4c-X'	.	4g-'	.	4e-'	.	4cc-X'	.	V
4c-'	.	4e-'	.	4cc-X'	.	4gg-'	.	.
=145	=145	=145	=145	=145	=145	=145	=145	=145
4.c-X	.	(4.g-	.	4.cc-X	.	(4.bb--X	.	V7
!	!	!	!	!	!	!LO:TX:a:t=V2	!	!
8B--X	.	16f-XLL	.	8cc-	.	16aa-LL	.	.
.	.	16e-JJ)	.	.	.	16gg-JJ)	.	.
=146	=146	=146	=146	=146	=146	=146	=146	=146
8A-'L	.	8a-'L	.	8cc-X'L	.	8ccc-X'L	.	I6
8d-'J	.	8f-X'J	.	8cc-'J	.	8aa-'J	.	vi7
8B--X'L	.	8g-'L	.	8cc-'L	.	8bb--X'L	.	ii6(4)
8c-X'J	.	8e-'J	.	8b--X'J	.	8gg-'J	.	V7
=147	=147	=147	=147	=147	=147	=147	=147	=147
4F-X	.	4f-X	.	4a-	.	8ff-X'L	.	I\\
.	.	.	.	.	.	(16aa-L	.	I
.	.	.	.	.	.	16ff-JJ)	.	.
4r	.	8r	.	8r	.	[4cc-X	.	.
.	.	(8f-	.	(8a-	.	.	.	.
=148	=148	=148	=148	=148	=148	=148	=148	=148
2r	.	4e-)	.	4b--X)	.	8cc-L]	.	V65
.	.	.	.	.	.	(16cc-XL	.	.
.	.	.	.	.	.	16b-JJ)	.	.
.	.	8r	.	8r	.	[4cc-	.	.
.	.	8e-'	.	8b--'	.	.	.	.
=149	=149	=149	=149	=149	=149	=149	=149	=149
2r	.	8f-X'L	.	8a-'L	.	8cc-L]	.	I
.	.	8f'J	.	8a-'J	.	(16cc-XL	.	V65/ii
.	.	.	.	.	.	16dd-JJ)	.	.
.	.	8g-'L	.	8d-'L	.	8b--X'L	.	ii
.	.	8e-'J	.	8g-'J	.	(16b--L	.	V65
.	.	.	.	.	.	16cc-JJ)	.	.
=150	=150	=150	=150	=150	=150	=150	=150	=150
2r	.	8f-X'L	.	8c-X'L	.	8a-'L	.	I
.	.	8d-'J	.	8f-X'J	.	(16a-L	.	vi
.	.	.	.	.	.	16b--XJJ)	.	.
.	.	8B--X'L	.	8f-'L	.	8g-'L	.	ii6
.	.	8c-X'J	.	8e-'J	.	(16g-L	.	V
.	.	.	.	.	.	16a-JJ)	.	.
=151	=151	=151	=151	=151	=151	=151	=151	=151
4r	.	4F-X	.	4A-	.	8f-X'L	.	I\\
.	.	.	.	.	.	(16a-L	.	I
.	.	.	.	.	.	16f-JJ)	.	.
8r	.	8r	.	8r	.	[4c-X	.	.
(8F-X	.	(8F-	.	(8A-	.	.	.	.
=152	=152	=152	=152	=152	=152	=152	=152	=152
4E-)	.	4G-)	.	4B--X)	.	8c-L]	.	V65
.	.	.	.	.	.	(16c-XL	.	.
.	.	.	.	.	.	16B-JJ)	.	.
8r	.	8r	.	8r	.	[4c-	.	.
(8E-	.	(8G-	.	(8B--	.	.	.	.
=153	=153	=153	=153	=153	=153	=153	=153	=153
4F-X)	.	4F-X)	.	4A-)	.	8c-L]	.	I
.	.	.	.	.	.	(16c-XL	.	.
.	.	.	.	.	.	16B-JJ)	.	.
8r	.	8r	.	8r	.	[4c-	.	.
(8F-	.	(8A-	.	(8c-X	.	.	.	.
=154	=154	=154	=154	=154	=154	=154	=154	=154
4E--X)	.	4G-)	.	4g-)	.	8c-L]	.	.bvii.iv6
.	.	.	.	.	.	(16c-XL	.	.
.	.	.	.	.	.	16B-JJ)	.	.
8r	.	8r	.	8r	.	8c-'L	.	.
(8E--	.	(8G-	.	(8g-	.	8c'J	.	.Ger6
=155	=155	=155	=155	=155	=155	=155	=155	=155
!	!	!LO:TX:a:Bi:t=cresc.	!	!LO:TX:a:Bi:t=cresc.	!	!	!	!
4D-)	.	4A-)	.	4f)	.	8d-'L	.	V\\
.	.	.	.	.	.	(16d-L	.	.
.	.	.	.	.	.	16cJJ)	.	.
8r	.	8r	.	8r	.	8d-'L	.	V
!LO:TX:b:Bi:t=cresc.	!	!LO:TX:b:Bi:t=cresc.	!	!	!	!	!	!
8D-'	.	8G-'	.	8dd-'	.	8e-'J	.	.
=156	=156	=156	=156	=156	=156	=156	=156	=156
4D-'	.	4A-'	.	4dd-'	.	8f-X'L	.	v
.	.	.	.	.	.	(16f-L	.	.
.	.	.	.	.	.	16e-JJ)	.	.
8r	.	8r	.	8r	.	8f-'L	.	.
8C-X'	.	8A-'	.	8dd-'	.	8f'J	.	V2
=157	=157	=157	=157	=157	=157	=157	=157	=157
4BB--X'	.	4B--X'	.	4dd-'	.	8g-'L	.	i6
.	.	.	.	.	.	(16g-L	.	.
.	.	.	.	.	.	16fJJ)	.	.
8r	.	8r	.	8r	.	8g-'L	.	.
8F	.	8d-	.	8d-	.	8a-'J	.	V6
=158	=158	=158	=158	=158	=158	=158	=158	=158
4G-	.	4g-	.	4d-	.	8b--X'L	.	i
.	.	.	.	.	.	(16b--L	.	.
.	.	.	.	.	.	16a-JJ)	.	.
8r	.	8r	.	8r	.	8b--'L	.	.
8F-X	.	8d-	.	8g-	.	8b-'J	.	V2/iv
=159	=159	=159	=159	=159	=159	=159	=159	=159
4E-	.	4e-	.	4g-	.	8cc-X'L	.	IV6
.	.	.	.	.	.	(16cc-L	.	.
.	.	.	.	.	.	16b-JJ)	.	.
8r	.	8r	.	8r	.	8cc-'L	.	.
8G-	.	8e-	.	8a-	.	8cc'J	.	iv.V2/V
=160	=160	=160	=160	=160	=160	=160	=160	=160
4F-X	.	4f-X	.	4a-	.	8dd-'L	.	i6
.	.	.	.	.	.	(16dd-L	.	.
.	.	.	.	.	.	16ccJJ)	.	.
8r	.	8r	.	8r	.	8dd-'L	.	.
8C	.	8g-	.	8a-	.	8ee-'J	.	V65
=161	=161	=161	=161	=161	=161	=161	=161	=161
!	!	!	!	!	!	!LO:TX:a:t=i	!	!
4D-	.	4f-X	.	4a-	.	8ff-X'L	.	.
.	.	.	.	.	.	(16ff-L	.	.
.	.	.	.	.	.	16ee-JJ)	.	.
8r	.	8r	.	8r	.	8ff-'L	.	.
8C-X	.	8d-	.	8dd-	.	8ff'J	.	V2/IV
=162	=162	=162	=162	=162	=162	=162	=162	=162
4BB-	.	4d-	.	4dd-	.	8gg-'L	.	IV6
.	.	.	.	.	.	(16gg-L	.	.
.	.	.	.	.	.	16ffJJ)	.	.
8r	.	8r	.	8r	.	8gg-'L	.	.
8BB--X	.	8d-	.	8dd-	.	8ggX'J	.	.Ger6
=163	=163	=163	=163	=163	=163	=163	=163	=163
8AA-L	f	4c	f	4cc	f	8aa-L	f	V\\
8CJ	.	.	.	.	.	16ggL	.	V7
.	.	.	.	.	.	16aa-JJ	.	.
8E-L	.	4c	.	4e-	.	16cccLL	.	.
.	.	.	.	.	.	16aa-	.	.
8A-J	.	.	.	.	.	16gg	.	.
.	.	.	.	.	.	16aa-JJ	.	.
=164	=164	=164	=164	=164	=164	=164	=164	=164
8AA-L	.	4r	.	4r	.	16ddd-LL	.	V(64)
.	.	.	.	.	.	16aa-	.	.
8D-J	.	.	.	.	.	16gg	.	.
.	.	.	.	.	.	16aa-JJ	.	.
8F-XL	.	4d-	.	4f-X	.	16gg-LL	.	.
.	.	.	.	.	.	16ff-X	.	.
8A-J	.	.	.	.	.	16ee-	.	.
.	.	.	.	.	.	16dd-JJ	.	.
=165	=165	=165	=165	=165	=165	=165	=165	=165
8AA-L	.	4r	.	4r	.	8ccL	.	V7
8CJ	.	.	.	.	.	16gL	.	.
.	.	.	.	.	.	16a-JJ	.	.
8E-L	.	4c	.	4a- 4ee-	.	16ccLL	.	.
.	.	.	.	.	.	16a-	.	.
8A-J	.	.	.	.	.	16g	.	.
.	.	.	.	.	.	16a-JJ	.	.
=166	=166	=166	=166	=166	=166	=166	=166	=166
8AA-L	.	4r	.	4r	.	16dd-LL	.	V(64)
.	.	.	.	.	.	16a-	.	.
8D-J	.	.	.	.	.	16g	.	.
.	.	.	.	.	.	16a-JJ	.	.
8F-XL	.	4d-	.	4a- 4ff-X	.	16g-LL	.	.
.	.	.	.	.	.	16f-X	.	.
8A-J	.	.	.	.	.	16e-	.	.
.	.	.	.	.	.	16d-JJ	.	.
=167	=167	=167	=167	=167	=167	=167	=167	=167
8AA-L	.	4r	.	4r	.	8A-L	.	V
8CJ	.	.	.	.	.	16ggXL	.	.
.	.	.	.	.	.	16aa-JJ	.	.
8E-L	.	4c	.	4e-	.	16cccLL	.	.
.	.	.	.	.	.	16aa-	.	.
8A-J	.	.	.	.	.	16ccc	.	.
.	.	.	.	.	.	16aa-JJ	.	.
=168	=168	=168	=168	=168	=168	=168	=168	=168
8AA-L	.	4r	.	4r	.	16ddd-LL	.	V(64)
.	.	.	.	.	.	16aa-	.	.
8D-J	.	.	.	.	.	16gg	.	.
.	.	.	.	.	.	16aa-JJ	.	.
8F-XL	.	4d-	.	4f-X	.	16gg-LL	.	.
.	.	.	.	.	.	16ff-X	.	.
8A-J	.	.	.	.	.	16ee-	.	.
.	.	.	.	.	.	16dd-JJ	.	.
=169	=169	=169	=169	=169	=169	=169	=169	=169
8AA-L	.	4r	.	4r	.	8ccL	.	V
8CJ	.	.	.	.	.	16gXL	.	.
.	.	.	.	.	.	16a-JJ	.	.
8E-L	.	4c	.	4a- 4ee-	.	16ccLL	.	.
.	.	.	.	.	.	16a-	.	.
8A-J	.	.	.	.	.	16cc	.	.
.	.	.	.	.	.	16a-JJ	.	.
=170	=170	=170	=170	=170	=170	=170	=170	=170
8AA-L	.	4r	.	4r	.	16dd-LL	.	V(64)
.	.	.	.	.	.	16a-	.	.
8D-J	.	.	.	.	.	16g	.	.
.	.	.	.	.	.	16a-JJ	.	.
8F-XL	.	4d-	.	4a- 4ff-X	.	16gLL	.	.
.	.	.	.	.	.	16f-X	.	.
8A-J	.	.	.	.	.	16e-	.	.
.	.	.	.	.	.	16d-JJ	.	.
=171	=171	=171	=171	=171	=171	=171	=171	=171
!	!	!	!LO:DY:a	!	!LO:DY:a	!	!	!
4AA-	.	4c	p p	4a- 4ee-	p	4A-	.	V\\
4r	.	4A-	.	4c	.	(16ccLL	.	.
.	.	.	.	.	.	16a-	.	.
.	.	.	.	.	.	16g	.	.
.	.	.	.	.	.	16a-JJ)	.	.
=172	=172	=172	=172	=172	=172	=172	=172	=172
!	!	!	!	!	!	!LO:TX:b:Bi:t=cresc.	!	!
2r	.	2r	.	2r	.	(16ccLL	.	V
.	.	.	.	.	.	16a-	.	.
.	.	.	.	.	.	16g	.	.
.	.	.	.	.	.	16a-JJ)	.	.
.	.	.	.	.	.	(16ccLL	.	.
.	.	.	.	.	.	16a-	.	.
.	.	.	.	.	.	16g	.	.
.	.	.	.	.	.	16a-JJ)	.	.
=173	=173	=173	=173	=173	=173	=173	=173	=173
4AA-	.	4r	.	4r	.	(16ee-LL	.	.
.	.	.	.	.	.	16cc	.	.
.	.	.	.	.	.	16bX	.	.
.	.	.	.	.	.	16ccJJ)	.	.
!	!	!LO:TX:a:Bi:t=cresc.	!	!LO:TX:a:Bi:t=cresc.	!	!	!	!
4r	.	4c	.	4e-	.	(16ee-LL	.	.
.	.	.	.	.	.	16cc	.	.
.	.	.	.	.	.	16b	.	.
.	.	.	.	.	.	16ccJJ)	.	.
=174	=174	=174	=174	=174	=174	=174	=174	=174
2r	.	2r	.	2r	.	(16ee-LL	.	.
.	.	.	.	.	.	16cc	.	.
.	.	.	.	.	.	16bX	.	.
.	.	.	.	.	.	16ccJJ)	.	.
.	.	.	.	.	.	(16ee-LL	.	.
.	.	.	.	.	.	16cc	.	.
.	.	.	.	.	.	16b	.	.
.	.	.	.	.	.	16ccJJ)	.	.
=175	=175	=175	=175	=175	=175	=175	=175	=175
!LO:TX:a:Bi:t=cresc.	!	!	!	!	!	!	!	!
4AA-	.	4r	.	4r	.	(16gg-LL	.	IV.V7
.	.	.	.	.	.	16ee-	.	.
.	.	.	.	.	.	16ddX	.	.
.	.	.	.	.	.	16ee-JJ)	.	.
4r	.	4e-	.	4g-	.	(16gg-LL	.	.
.	.	.	.	.	.	16ee-	.	.
.	.	.	.	.	.	16dd	.	.
.	.	.	.	.	.	16ee-JJ)	.	.
=176	=176	=176	=176	=176	=176	=176	=176	=176
!	!	!	!	!	!	!LO:TX:b:t=Sul A.	!	!
2r	.	2r	.	2r	.	(16gg-LL	.	.
.	.	.	.	.	.	16ee-	.	.
.	.	.	.	.	.	16ddX	.	.
.	.	.	.	.	.	16ee-JJ)	.	.
.	.	.	.	.	.	(16gg-LL	.	.
.	.	.	.	.	.	16ee-	.	.
.	.	.	.	.	.	16dd	.	.
.	.	.	.	.	.	16ee-JJ)	.	.
=177	=177	=177	=177	=177	=177	=177	=177	=177
2r	.	2r	.	2r	.	(16bb-LL	ff	V7(+9)
.	.	.	.	.	.	16gg-	.	.
.	.	.	.	.	.	16ff	.	.
.	.	.	.	.	.	16gg-JJ)	.	.
.	.	.	.	.	.	(16bb-LL	.	.
.	.	.	.	.	.	16aa-	.	.
.	.	.	.	.	.	16gg-	.	.
.	.	.	.	.	.	16ffJJ	.	.
=178	=178	=178	=178	=178	=178	=178	=178	=178
2r	.	2r	.	2r	.	16ee-LL	.	V
.	.	.	.	.	.	16dd-	.	.
.	.	.	.	.	.	16cc	.	.
.	.	.	.	.	.	16b-JJ	.	.
.	.	.	.	.	.	16a-LL	.	.
.	.	.	.	.	.	16g	.	.
.	.	.	.	.	.	16f	.	.
.	.	.	.	.	.	16e-JJ)	.	.
=179	=179	=179	=179	=179	=179	=179	=179	=179
!	!LO:DY:a	!	!	!	!LO:DY:a	!	!	!
8DD-L	fp fp	8FL 8A-	.	2r	fp	4d-'	.	I[I6
8D-J	.	8FJ 8A-	.	.	.	.	.	.
8D-L	.	8FL 8A-	.	.	.	4d-'	.	.
8D-J	.	8FJ 8A-	.	.	.	.	.	.
=180	=180	=180	=180	=180	=180	=180	=180	=180
8D-L	.	8FL 8A-	.	2r	.	(4.f	.	.
8D-J	.	8FJ 8A-	.	.	.	.	.	.
8D-L	.	8FL 8A-	.	.	.	.	.	.
8D-J	.	8FJ 8A-	.	.	.	16e-LL	.	.
.	.	.	.	.	.	16d-JJ)	.	.
=181	=181	=181	=181	=181	=181	=181	=181	=181
8D-L	.	8G-L 8A-	.	2r	.	8c'L	.	V2
8D-J	.	8G-J 8A-	.	.	.	8d-'J	.	.
8D-L	.	8G-L 8A-	.	.	.	8e-'L	.	.
8D-J	.	8G-J 8A-	.	.	.	8f'J	.	.
=182	=182	=182	=182	=182	=182	=182	=182	=182
8D-L	.	8G-L 8A-	.	8gg-L	p	8g-	.	.
8D-J	.	8G-J 8A-	.	8ffJ	.	8r	.	.
8D-L	.	8G-L 8A-	.	8ee-L	.	4r	.	.
8D-J	.	8G-J 8A-	.	8dd-J	.	.	.	.
=183	=183	=183	=183	=183	=183	=183	=183	=183
8D-L	.	8G-L 8A-	.	4cc	.	4A-'	.	.
8D-J	.	8G-J 8A-	.	.	.	.	.	.
8D-L	.	8G-L 8A-	.	4r	.	4e-'	.	.
8D-J	.	8G-J 8A-	.	.	.	.	.	.
=184	=184	=184	=184	=184	=184	=184	=184	=184
8D-L	.	8G-L 8A-	.	2r	.	(4.g-	sf	.
8D-J	.	8G-J 8A-	.	.	.	.	.	.
8D-L	.	8G-L 8A-	.	.	.	.	.	.
8D-J	.	8G-J 8A-	.	.	.	16fLL	.	.
.	.	.	.	.	.	16e-JJ)	.	.
=185	=185	=185	=185	=185	=185	=185	=185	=185
8D-L	.	8FL 8A-	.	2r	.	8a-'L	.	I6
8D-J	.	8FJ 8A-	.	.	.	8f'J	.	.
8D-L	.	8FL 8A-	.	.	.	8a-'L	.	.
8D-J	.	8FJ 8A-	.	.	.	8f'J	.	.
=186	=186	=186	=186	=186	=186	=186	=186	=186
8D-L	.	8FL 8A-	.	8aa-'L	p	8d-	.	I6]
8D-J	.	8FJ 8A-	.	8ff'J	.	4r	.	.
8D-L	.	8FL 8A-	.	8aa-'L	.	.	.	.
8D-J	.	8FJ 8A-	.	8ff'J	.	8r	.	.
=187	=187	=187	=187	=187	=187	=187	=187	=187
4AA-'	.	8FL 8A-	.	4dd-'	.	2r	.	V
.	.	8A-J 8a-	.	.	.	.	.	.
4D-'	.	8A-L 8a-	.	4a-'	.	.	.	.
.	.	8A-J 8a-	.	.	.	.	.	.
=188	=188	=188	=188	=188	=188	=188	=188	=188
!	!	!	!	!	!	!LO:TX:a:t=I	!	!
(4.F	sf	8A-L 8a-	.	4dd-'	.	2r	.	I6
.	.	8A-J 8a-	.	.	.	.	.	.
.	.	8A-L 8a-	.	[4ff	sf	.	.	.
16E-LL	.	8A-J 8a-	.	.	.	.	.	.
16D-JJ)	.	.	.	.	.	.	.	.
=189	=189	=189	=189	=189	=189	=189	=189	=189
8C'L	.	8A-L 8a-	.	(8ffL]	.	2r	.	V6
8D-'J	.	8A-J 8a-	.	16ee-L	.	.	.	.
.	.	.	.	16dd-JJ)	.	.	.	.
8E-'L	.	8A-L 8a-	.	8ccL	.	.	.	.
8F'J	.	8A-J 8a-	.	8dd-J	.	.	.	.
=190	=190	=190	=190	=190	=190	=190	=190	=190
8G-	.	8A-L 8a-	.	8ee-L	.	8ccc'L	p	V2
4r	.	8A-J 8a-	.	8ff	.	8ddd-'J	.	.
.	.	8A-L 8a-	.	8gg-J	.	8eee-'L	.	.
8r	.	8A-J 8a-	.	8r	.	8fff'J	.	.
=191	=191	=191	=191	=191	=191	=191	=191	=191
4AA-'	.	8A-L 8a-	.	4r	.	8ggg-	.	V7
.	.	8A-J 8a-	.	.	.	8r	.	.
4E-'	.	8A-L 8a-	.	4a-'	.	4r	.	.
.	.	8A-J 8a-	.	.	.	.	.	.
=192	=192	=192	=192	=192	=192	=192	=192	=192
(4.G-	sf	8A-L 8a-	.	4ee-'	.	2r	.	V2
.	.	8A-J 8a-	.	.	.	.	.	.
.	.	8A-L 8a-	.	[4gg-	sf	.	.	.
16FLL	.	8A-J 8a-	.	.	.	.	.	.
16E-JJ)	.	.	.	.	.	.	.	.
=193	=193	=193	=193	=193	=193	=193	=193	=193
!	!	!	!	!	!	!LO:TX:a:t=V43	!	!
8D-'L	.	8A-L 8a-	.	(8gg-L]	.	2r	.	I
8E-'J	.	8A-J 8a-	.	16ffL	.	.	.	.
.	.	.	.	16ee-JJ)	.	.	.	.
8F'L	.	8A-L 8a-	.	8dd-'L	.	.	.	.
8G-'J	.	8A-J 8a-	.	8ee-'J	.	.	.	.
=194	=194	=194	=194	=194	=194	=194	=194	=194
[2A-	sf	8A-L 8a-	.	8ff'L	.	8ddd-'L	.	I64
.	.	8A-J 8a-	.	8gg-'J	.	8eee-'J	.	.
.	.	8d-'L	.	4aa-	.	8fff'L	.	.
.	.	8e-'J	.	.	.	8ggg-'J	.	.
=195	=195	=195	=195	=195	=195	=195	=195	=195
8A-L]	.	8f'L	.	4r	.	[2aaa-	sf	.
8G-'J	.	8g-'J	.	.	.	.	.	.
8F'L	.	4a-	.	8aa-'L	.	.	.	.
8E-'J	.	.	.	8gg-'J	.	.	.	.
=196	=196	=196	=196	=196	=196	=196	=196	=196
2D-	sf	4r	.	8ff'L	.	8aaa-'L]	.	I
.	.	.	.	8ee-'J	.	8ggg-'J	.	.
.	.	8B-'L	.	8dd-'	.	8fff'L	.	.
.	.	8c'J	.	8r	.	8eee-'J	.	.
=197	=197	=197	=197	=197	=197	=197	=197	=197
8F'L	.	8d-'L	.	4r	.	2ddd-	sf	.
8E-'J	.	8e-'J	.	.	.	.	.	.
8D-'L	.	4f	.	8ff'L	.	.	.	.
8C'J	.	.	.	8ee-'J	.	.	.	.
=198	=198	=198	=198	=198	=198	=198	=198	=198
2BB-	sf	4r	.	8dd-'L	.	8fff'L	.	vi
.	.	.	.	8cc'J	.	8eee-'J	.	.
!	!	!	!	!	!	!LO:TX:a:t=#viio6/V	!	!
.	.	8GX'L	.	8b-'	.	8ddd-'L	.	.
.	.	8A-'J	.	8r	.	8ccc'J	.	.
=199	=199	=199	=199	=199	=199	=199	=199	=199
8D-'L	.	8B-'L	.	4r	.	2bb-	sf	#viio64/V
8C'J	.	8c'J	.	.	.	.	.	.
8BB-'L	.	4d-	.	8dd-'L	.	.	.	.
8AA-'J	.	.	.	8cc'J	.	.	.	.
=200	=200	=200	=200	=200	=200	=200	=200	=200
2GGX	sf	4r	.	8b-'L	ff	8ddd-'L	.	V65/V
.	.	.	.	8a-'J	.	8ccc'J	.	.
.	.	8E-'L	.	4g	.	8bb-'L	.	.
.	.	8F'J	.	.	.	8aa-'J	.	.
=201	=201	=201	=201	=201	=201	=201	=201	=201
8BB-'L	.	8G'L	.	4r	.	2ggX	sf	V64/V
8AA-'J	.	8A-'J	.	.	.	.	.	.
8GG'L	.	4B-	.	8b-'L	.	.	.	.
8FF'J	.	.	.	8a-'J	.	.	.	.
=202	=202	=202	=202	=202	=202	=202	=202	=202
!	!LO:DY:a	!	!	!	!	!	!	!
2EE-	sf ff	4r	.	8g'L	.	8bb-'L	.	V/V
.	.	.	.	8f'J	.	8aa-'J	.	.
.	.	8E-'L	.	4e-	.	8gg'L	.	.
.	.	8F'J	.	.	.	8ff'J	.	.
=203	=203	=203	=203	=203	=203	=203	=203	=203
8EE-'L	ff	8G'L	.	2r	.	2ee-	sf	I.V
8FF'J	.	8A-'J	.	.	.	.	.	.
8GG'L	.	8B-'L	.	.	.	.	.	.
8AA-'J	.	8c'J	.	.	.	.	.	.
=204	=204	=204	=204	=204	=204	=204	=204	=204
8BB-L	.	[2E- [2d-	.	2r	.	2r	.	V43
8CJ	.	.	.	.	.	.	.	.
8D-L	.	.	.	.	.	.	.	.
8CJ	.	.	.	.	.	.	.	.
=205	=205	=205	=205	=205	=205	=205	=205	=205
8D-L	.	2E-_ 2d-_	.	2r	.	2r	.	V2
8CJ	.	.	.	.	.	.	.	.
8BB-L	.	.	.	.	.	.	.	.
8AA-J	.	.	.	.	.	.	.	.
=206	=206	=206	=206	=206	=206	=206	=206	=206
8GGL	.	4E-] 4d-]	.	2r	.	4ee-'	ff	V65
8FFJ	.	.	.	.	.	.	.	.
!	!LO:DY:a	!	!	!	!	!	!	!
8EE-L	sf	8E-'L	.	.	.	4gg'	.	.
8DDXJ	.	8F'J	.	.	.	.	.	.
=207	=207	=207	=207	=207	=207	=207	=207	=207
8EE-L	sf	8G'L	.	2r	.	2bb-	sf	V
8FFJ	.	8A-'J	.	.	.	.	.	.
8GGL	.	8B-'L	.	.	.	.	.	.
8AA-J	.	8c'J	.	.	.	.	.	.
=208	=208	=208	=208	=208	=208	=208	=208	=208
8BB-L	.	[2E- [2d-	.	2r	.	2r	.	V43
8CJ	.	.	.	.	.	.	.	.
8D-L	.	.	.	.	.	.	.	.
8CJ	.	.	.	.	.	.	.	.
=209	=209	=209	=209	=209	=209	=209	=209	=209
8D-L	.	2E-_ 2d-_	.	2r	.	2r	.	V2
8CJ	.	.	.	.	.	.	.	.
8BB-L	.	.	.	.	.	.	.	.
8AA-J	.	.	.	.	.	.	.	.
=210	=210	=210	=210	=210	=210	=210	=210	=210
!	!	!	!LO:DY:a	!	!	!	!	!
8GGL	.	4E-] 4d-]	ff	4e-'	.	4gg'	.	V65
8FFJ	.	.	.	.	.	.	.	.
8EE-L	.	8E-'L	.	4g'	.	4bb-'	.	.
8DDXJ	.	8F'J	.	.	.	.	.	.
=211	=211	=211	=211	=211	=211	=211	=211	=211
8EE-L	sf	8G'L	.	2b-	sf	2ddd-	sf	V7
8FFJ	.	8A-'J	.	.	.	.	.	.
8GGL	.	8B-'L	.	.	.	.	.	.
8AA-J	.	8c'J	.	.	.	.	.	.
=212	=212	=212	=212	=212	=212	=212	=212	=212
8BB-L	.	[2E- [2d-	.	2r	.	2r	.	V43
8CJ	.	.	.	.	.	.	.	.
8D-L	.	.	.	.	.	.	.	.
8DXJ	.	.	.	.	.	.	.	.
=213	=213	=213	=213	=213	=213	=213	=213	=213
8E-L	.	2E-_ 2d-_	.	2r	.	2r	.	V7
8DXJ	.	.	.	.	.	.	.	.
8E-L	.	.	.	.	.	.	.	.
8DJ	.	.	.	.	.	.	.	.
=214	=214	=214	=214	=214	=214	=214	=214	=214
8E-L	.	2E-] 2d-]	.	4g'	.	4bb-'	.	.
8DXJ	.	.	.	.	.	.	.	.
8E-L	.	.	.	4b-'	.	4ddd-'	.	.
8DJ	.	.	.	.	.	.	.	.
=215	=215	=215	=215	=215	=215	=215	=215	=215
!	!LO:DY:a	!	!	!	!	!	!	!
[2E-	p p	4G'	.	2dd-	.	(4fff-X	p	V7(+b9)
.	.	4B-'	.	.	.	4ddd-	.	.
=216	=216	=216	=216	=216	=216	=216	=216	=216
2E-_	.	(4d-	.	(4f-X	.	2bb-)	.	V7(+b9)
.	.	4B-	.	4d-	.	.	.	.
=217	=217	=217	=217	=217	=217	=217	=217	=217
2E-_	.	2G)	.	2B-)	.	(4ddd-	.	V7
.	.	.	.	.	.	4bb-	.	.
=218	=218	=218	=218	=218	=218	=218	=218	=218
2E-_	.	(4f-X	.	(4dd-	.	2gg)	.	V7(+b9)
.	.	4d-	.	4b-	.	.	.	.
=219	=219	=219	=219	=219	=219	=219	=219	=219
2E-_	.	4B-)	.	4g)	.	(4ddd-	.	.
.	.	(4dd-	.	(4ff-X	.	4bb-	.	.
=220	=220	=220	=220	=220	=220	=220	=220	=220
2E-_	.	4b-	.	4dd-	.	4gg	.	.
.	.	4g	.	4b-	.	4ff-X	.	.
=221	=221	=221	=221	=221	=221	=221	=221	=221
2E-_	.	4f-X	.	4g	.	4dd-	.	.
.	.	4d-	.	4f-X	.	4b-	.	.
=222	=222	=222	=222	=222	=222	=222	=222	=222
2E-_	.	4dX	.	4f	.	4cc-X	.	V[#viio2/V
.	.	4c-X	.	4dX	.	4a-	.	.
=223	=223	=223	=223	=223	=223	=223	=223	=223
2E-_	.	4B-)	.	4e-)	.	4g)	.	V64
.	.	(4dd-	.	(4ff-X	.	(4bb-	.	iio6
=224	=224	=224	=224	=224	=224	=224	=224	=224
2E-_	.	4b-	.	4dd-	.	4gg	.	viio6
.	.	4g	.	4b-	.	4ff-X	.	viio7
=225	=225	=225	=225	=225	=225	=225	=225	=225
2E-_	.	4f-X	.	4g	.	4dd-	.	viio2
.	.	4d-	.	4f-X	.	4b-	.	iio6
=226	=226	=226	=226	=226	=226	=226	=226	=226
2E-_	.	4dX	.	4f	.	4cc-X	.	viio7/V
.	.	4c-X)	.	4dX)	.	4a-)	.	viio2/V
=227	=227	=227	=227	=227	=227	=227	=227	=227
2E-]	.	(2B-	.	(2e-	.	(2g	.	V64]
=228	=228	=228	=228	=228	=228	=228	=228	=228
2F-X	.	2A-)	.	2dX)	.	2a-)	.	.It6
=229	=229	=229	=229	=229	=229	=229	=229	=229
!LO:TX:b:Bi:t=decresc.	!	!LO:TX:b:Bi:t=decresc.	!	!LO:TX:b:Bi:t=decresc.	!	!LO:TX:b:Bi:t=decresc.	!	!
(2E-	.	(2B-	.	(2e-	.	(2g	.	V
=230	=230	=230	=230	=230	=230	=230	=230	=230
2F-X)	.	2A-)	.	2dX)	.	2a-)	.	.It6
=231	=231	=231	=231	=231	=231	=231	=231	=231
(2E-	.	(2B-	.	(2e-	.	(2g	.	V
=232	=232	=232	=232	=232	=232	=232	=232	=232
[2F-X)	.	[2A-)	.	[2dX)	.	[2a-)	.	.It6
=233	=233	=233	=233	=233	=233	=233	=233	=233
2F-_	.	2A-]	.	2d]	.	2a-_	.	.
=234	=234	=234	=234	=234	=234	=234	=234	=234
!	!	!	!LO:DY:a	!	!	!	!	!
2F-;]	pp	2e--X;	pp pp	2c-X;	.	2a-;]	pp	.bII.V7
=235	=235	=235	=235	=235	=235	=235	=235	=235
4BB--X'	pp	4F-X'	pp	4d-'	pp	4f-X'	pp	I
4BB--'	.	4F-'	.	4d-'	.	4b--X'	.	.
=236	=236	=236	=236	=236	=236	=236	=236	=236
4.BB--X	.	4.F-X	.	4.d-	.	(4.dd-	.	.
8BB--	.	8F-	.	8d-	.	16cc-XLL	.	.
.	.	.	.	.	.	16b--XJJ)	.	.
=237	=237	=237	=237	=237	=237	=237	=237	=237
8C-X'L	.	8F-X'L	.	8e--X'L	.	8a-'L	.	V43
8C-'J	.	8F-'J	.	8e--'J	.	8b--X'J	.	.
8C-'L	.	8F-'L	.	8e--'L	.	8cc-X'L	.	.
8C-'J	.	8F-'J	.	8e--'J	.	8dd-'J	.	.
=238	=238	=238	=238	=238	=238	=238	=238	=238
8C-X	.	8F-X	.	8e--X	.	8ee--X	.	.
8r	.	8r	.	8r	.	4r	.	.
4r	.	4r	.	4r	.	.	.	.
.	.	.	.	.	.	8r	.	.
=239	=239	=239	=239	=239	=239	=239	=239	=239
8c-X'L	.	8f'L	.	8a-'L	.	8a-'L	.	#viio43/vi
8c-'J	.	8f'J	.	8a-'J	.	8b--X'J	.	.
8c-'L	.	8f'L	.	8a-'L	.	8cc-X'L	.	.
8c-'J	.	8f'J	.	8a-'J	.	8dd-'J	.	.
=240	=240	=240	=240	=240	=240	=240	=240	=240
8c-X	.	8f	.	8a-	.	8ee--X	.	.
8r	.	8r	.	8r	.	4r	.	.
4r	.	4r	.	4r	.	.	.	.
.	.	.	.	.	.	8r	.	.
=241	=241	=241	=241	=241	=241	=241	=241	=241
8B-'L	.	8f'L	.	8a-'L	.	8ddX'L	.	I.V7/V
8B-'J	.	8f'J	.	8a-'J	.	8ee-'J	.	.
8B-'L	.	8f'L	.	8a-'L	.	8ff'L	.	.
8B-'J	.	8f'J	.	8a-'J	.	8ggX'J	.	.
=242	=242	=242	=242	=242	=242	=242	=242	=242
8B-	.	8f	.	8a-	.	8aa-	.	.
8r	.	8r	.	8r	.	8r	.	.
4r	.	4r	.	4r	.	4r	.	.
=243	=243	=243	=243	=243	=243	=243	=243	=243
!LO:TX:b:Bi:t=cresc.	!	!LO:TX:b:Bi:t=cresc.	!	!LO:TX:b:Bi:t=cresc.	!	!LO:TX:b:Bi:t=cresc.	!	!
4B-'	.	4e-'	.	4dd-'	.	4gg'	.	V43
4A-'	.	4e-'	.	4cc'	.	4aa-'	.	I
=244	=244	=244	=244	=244	=244	=244	=244	=244
4G'	.	4e-'	.	4b-'	.	4bb-'	.	V6
4F'	.	4e-'	.	4a-'	.	4ccc'	.	vi7
=245	=245	=245	=245	=245	=245	=245	=245	=245
[2E-	sf	[2e-	sf	[2g	sf	[2ddd-	sf	V7
=246	=246	=246	=246	=246	=246	=246	=246	=246
2E-;]	.	2e-;]	.	2g;]	.	2ddd-;]	.	.
=247	=247	=247	=247	=247	=247	=247	=247	=247
4E-'	p	2r	.	2r	.	2r	.	I
4A-'	.	.	.	.	.	.	.	.
=248	=248	=248	=248	=248	=248	=248	=248	=248
(4.c	.	2r	.	2r	.	2r	.	.
16B-LL	.	.	.	.	.	.	.	.
16A-JJ)	.	.	.	.	.	.	.	.
=249	=249	=249	=249	=249	=249	=249	=249	=249
8G'L	.	2r	.	2r	.	4r	.	V65
8A-'J	.	.	.	.	.	.	.	.
8B-'L	.	.	.	.	.	8g'L	p	.
8c'J	.	.	.	.	.	8a-'J	.	.
=250	=250	=250	=250	=250	=250	=250	=250	=250
4d-	.	2r	.	2r	.	8b-'L	.	.
.	.	.	.	.	.	8cc'J	.	.
4r	.	.	.	.	.	8dd-'L	.	.
.	.	.	.	.	.	8ddX'J	.	.
=251	=251	=251	=251	=251	=251	=251	=251	=251
!	!	!	!	!LO:TX:a:Bi:t=sempre staccato	!	!	!	!
4A-'	p	4c'	p	4e-'	p	8ee-L	.	I
.	.	.	.	.	.	8ffJ	.	.
4A-'	.	4c'	.	4a-'	.	8ggL	.	.
.	.	.	.	.	.	8aa-J	.	.
=252	=252	=252	=252	=252	=252	=252	=252	=252
(4.F	.	(4.a-	.	(4.cc	.	8bb-L	.	vi
.	.	.	.	.	.	8bbXJ	.	.
.	.	.	.	.	.	8cccL	.	.
16GLL	.	16gLL	.	16b-LL	.	8aa-J	.	.
16A-JJ)	.	16fJJ)	.	16a-JJ)	.	.	.	.
=253	=253	=253	=253	=253	=253	=253	=253	=253
8B-'L	.	8e-'L	.	8g'L	.	8ggL	.	V.V(64)
8B-'J	.	8g'J	.	8b-'J	.	8bb-J	.	.
8BB-'L	.	8f'L	.	8a-'L	.	8aa-L	.	V7
8BB-'J	.	8dX'J	.	8f'J	.	8ffJ	.	.
=254	=254	=254	=254	=254	=254	=254	=254	=254
8E-	.	8e-	.	8g	.	8ee-L	.	I\\
8r	.	8r	.	8r	.	8gJ	.	.
4r	.	4r	.	4r	.	8b-L	.	.
.	.	.	.	.	.	8e-J	.	.
=255	=255	=255	=255	=255	=255	=255	=255	=255
4E-'	.	2r	.	2r	.	2r	.	I.V7
4B-'	.	.	.	.	.	.	.	.
=256	=256	=256	=256	=256	=256	=256	=256	=256
(4.d-	.	2r	.	2r	.	8r	.	.
.	.	.	.	.	.	8bb-	.	.
.	.	.	.	.	.	8ggL	.	.
!	!	!	!	!	!	!LO:TX:a:t=V2/vi	!	!
16cLL	.	.	.	.	.	8eeXJ	.	.
16B-JJ)	.	.	.	.	.	.	.	.
=257	=257	=257	=257	=257	=257	=257	=257	=257
8A-'L	.	2r	.	2r	.	8ffL	.	vi6
8A-'J	.	.	.	.	.	8aa-J	.	.
8B-'L	.	.	.	.	.	8ggL	.	.
!	!	!	!	!	!	!LO:TX:a:t=#viio7/iii	!	!
8BX'J	.	.	.	.	.	8ffJ	.	.
=258	=258	=258	=258	=258	=258	=258	=258	=258
8c	.	2r	.	2r	.	8eeXL	.	vi.V
8r	.	.	.	.	.	8ddXJ	.	.
4r	.	.	.	.	.	8ccL	.	.
.	.	.	.	.	.	8ddJ	.	.
=259	=259	=259	=259	=259	=259	=259	=259	=259
4c'	.	4eX'	.	4g'	.	8eeXL	.	V7
.	.	.	.	.	.	8ffJ	.	.
4c'	.	4g'	.	4b-'	.	8ggL	.	.
.	.	.	.	.	.	8aa-J	.	.
=260	=260	=260	=260	=260	=260	=260	=260	=260
4.c	.	(4.b-	.	(4.dd-	.	8bb-L	.	.
.	.	.	.	.	.	8cccJ	.	.
.	.	.	.	.	.	8dddXL	.	.
8c	.	16a-LL	.	16ccLL	.	8eeeXJ	.	.
.	.	16gJJ)	.	16b-JJ)	.	.	.	.
=261	=261	=261	=261	=261	=261	=261	=261	=261
8f'L	.	8f'L	.	8a-'L	.	8fffL	.	i
8f'J	.	8a-'J	.	8cc'J	.	8aaa-J	.	.
8c'L	.	8b-'L	.	8dd-'L	.	8gggL	.	V7(9)
8c'J	.	8b-'J	.	8cc'J	.	8eeeXJ	.	V7
=262	=262	=262	=262	=262	=262	=262	=262	=262
8A-	.	8a-	.	8cc	.	8fffL	.	i
8r	.	8r	.	8r	.	8aa-J	.	.
4r	.	4r	.	4r	.	8cccL	.	.
.	.	.	.	.	.	8ffJ	.	.
=263	=263	=263	=263	=263	=263	=263	=263	=263
(2AA-	.	(2E-	.	(4g-	.	8gg-L	.	I.V7/IV
.	.	.	.	.	.	8ccJ	.	.
.	.	.	.	16fLL	.	8ee-L	.	.
.	.	.	.	16e-	.	.	.	.
.	.	.	.	16d-	.	8g-J	.	.
.	.	.	.	16cJJ)	.	.	.	.
=264	=264	=264	=264	=264	=264	=264	=264	=264
.	.	.	.	8qe-/	.	.	.	.
8D-)	.	8F)	.	16d-LL	.	8fL	.	IV
.	.	.	.	16c	.	.	.	.
8r	.	8r	.	16d-	.	8dd-J	.	.
.	.	.	.	16e-JJ	.	.	.	.
4r	.	4r	.	8f	.	8a-L	.	.
.	.	.	.	8r	.	8ffJ	.	.
=265	=265	=265	=265	=265	=265	=265	=265	=265
!LO:TX:b:Bi:t=cresc.	!	!LO:TX:b:Bi:t=cresc.	!	!LO:TX:b:Bi:t=cresc.	!	!LO:TX:b:Bi:t=cresc.	!	!
[2E-	.	[2G	.	(4.dd-	.	8ddd-L	.	V7
.	.	.	.	.	.	8ggXJ	.	.
.	.	.	.	.	.	8bb-L	.	.
.	.	.	.	16b-LL	.	8dd-J	.	.
.	.	.	.	16gXJJ	.	.	.	.
=266	=266	=266	=266	=266	=266	=266	=266	=266
8E-L]	.	8GL]	.	8e-'L)	.	8ggL	.	.
8D-'J	.	8E-'J	.	8e-'J	.	8b-J	.	.
8C'L	.	8e-'L	.	8e-'L	.	8dd-L	.	.
8BB-'J	.	8d-'J	.	8e-'J	.	8gJ	.	.
=267	=267	=267	=267	=267	=267	=267	=267	=267
!	!	!	!LO:DY:a	!	!	!	!	!
8AA-L	f	8cL	f f	4e-'	.	4ee-'	f	I
8A-J	.	8cJ	.	.	.	.	.	.
8A-L	.	8cL	.	4a-'	.	4aa-'	.	.
8A-J	.	8cJ	.	.	.	.	.	.
=268	=268	=268	=268	=268	=268	=268	=268	=268
8A-L	.	8cL	.	(4.cc	sf	(4.ccc	sf	.
8A-J	.	8cJ	.	.	.	.	.	.
8A-L	.	8cL	.	.	.	.	.	.
8A-J	.	8cJ	.	16b-LL	.	16bb-LL	.	.
.	.	.	.	16a-JJ)	.	16aa-JJ)	.	.
=269	=269	=269	=269	=269	=269	=269	=269	=269
8B-L	.	8d-L	.	8g'L	.	8gg'L	.	viio6
8A-J	.	8cJ	.	8a-'J	.	8aa-'J	.	I
8GL	.	8B-L	.	8b-'L	.	8bb-'L	.	viio
8FJ	.	8A-J	.	8cc'J	.	8ccc'J	.	vi
=270	=270	=270	=270	=270	=270	=270	=270	=270
(16E-LL	.	(16GLL	.	8dd-	.	8ddd-	.	V7
16G	.	16B-	.	.	.	.	.	.
16B-	.	16e-	.	8r	.	8r	.	.
16e-JJ	.	16gJJ	.	.	.	.	.	.
16gLL	.	16b-LL	.	4r	.	4r	.	.
16e-	.	16g	.	.	.	.	.	.
16B-	.	16e-	.	.	.	.	.	.
16GJJ)	.	16B-JJ)	.	.	.	.	.	.
=271	=271	=271	=271	=271	=271	=271	=271	=271
8E-L	.	8GL	.	4e-'	.	4ee-'	.	V
8E-J	.	8GJ	.	.	.	.	.	.
8E-L	.	8GL	.	4b-'	.	4bb-'	.	.
8E-J	.	8GJ	.	.	.	.	.	.
=272	=272	=272	=272	=272	=272	=272	=272	=272
8E-L	.	8GL	.	(4.dd-	sf	(4.ddd-	sf	V7
8E-J	.	8GJ	.	.	.	.	.	.
8E-L	.	8GL	.	.	.	.	.	.
8D-J	.	8GJ	.	16ccLL	.	16cccLL	.	V2
.	.	.	.	16b-JJ)	.	16bb-JJ)	.	.
=273	=273	=273	=273	=273	=273	=273	=273	=273
8CL	.	8A-L	.	8ee-'L	.	8eee-'L	.	I6
8FJ	.	8a-J	.	8cc'J	.	8ccc'J	.	vi
8E-L	.	8b-L	.	8dd-'L	.	8ddd-'L	.	ii6
8E-J	.	8gJ	.	8b-'J	.	8bb-'J	.	V
=274	=274	=274	=274	=274	=274	=274	=274	=274
4AA-	.	4c	p	4a-	p	8aa-'L	p	I\\
.	.	.	.	.	.	(16cccL	.	.
.	.	.	.	.	.	16aa-JJ)	.	.
4r	.	8r	.	8r	.	[4ee-	.	.
.	.	(8a-	.	(8cc	.	.	.	.
=275	=275	=275	=275	=275	=275	=275	=275	=275
2r	.	4g)	.	4dd-)	.	8ee-L]	.	V65
.	.	.	.	.	.	(16ee-L	.	.
.	.	.	.	.	.	16ddXJJ)	.	.
.	.	8r	.	8r	.	[4ee-	.	.
.	.	(8g	.	(8dd-	.	.	.	.
=276	=276	=276	=276	=276	=276	=276	=276	=276
2r	.	8a-'L)	.	8cc'L)	.	8ee-L]	.	I
.	.	8g-'J	.	8cc'J	.	(16ee-L	.	V2/IV
.	.	.	.	.	.	16ffJJ)	.	.
.	.	8f'L	.	8a-'L	.	8dd-L	.	IV6
.	.	8gX'J	.	8b-'J	.	(16dd-L	.	V65
.	.	.	.	.	.	16ee-JJ)	.	.
=277	=277	=277	=277	=277	=277	=277	=277	=277
2r	.	8a-'L	.	8cc'L	.	8ccL	.	I
.	.	8f'J	.	8a-'J	.	(16ccL	.	vi
.	.	.	.	.	.	16dd-JJ)	.	.
.	.	8d-'L	.	8f'L	.	8b-L	.	ii6
.	.	8e-'J	.	8gX'J	.	(16b-L	.	V
.	.	.	.	.	.	16ccJJ)	.	.
=278	=278	=278	=278	=278	=278	=278	=278	=278
4AA-	p	4A-	.	4c	.	8a-L	.	I\\
.	.	.	.	.	.	(16ccL	.	.
.	.	.	.	.	.	16a-JJ)	.	.
8r	.	8r	.	8r	.	[4e-	.	.
(8A-	.	(8A-	.	(8c	.	.	.	.
=279	=279	=279	=279	=279	=279	=279	=279	=279
4G)	.	4B-)	.	4d-)	.	8e-L]	.	V65
.	.	.	.	.	.	16e-L	.	.
.	.	.	.	.	.	16dXJJ	.	.
8r	.	8r	.	8r	.	[4e-	.	.
(8G	.	(8B-	.	(8d-	.	.	.	.
=280	=280	=280	=280	=280	=280	=280	=280	=280
!LO:TX:b:Bi:t=cresc.	!	!LO:TX:b:Bi:t=cresc.	!	!LO:TX:b:Bi:t=cresc.	!	!LO:TX:b:Bi:t=cresc.	!	!
8AA-L)	.	8A-L)	.	8cL)	.	8e-L]	.	I
8A-J	.	8cJ	.	8e-J	.	(16e-L	.	.
.	.	.	.	.	.	16dXJJ	.	.
8A-L	.	8cL	.	8e-L	.	16e-LL	.	.
.	.	.	.	.	.	16d-	.	.
8A-J	.	8cJ	.	8e-J	.	16c	.	.
.	.	.	.	.	.	16B-JJ)	.	.
=281	=281	=281	=281	=281	=281	=281	=281	=281
8FFL	.	8cL	.	8a-L	.	8A-'L	.	vi
8FJ	.	8B-J	.	8a-J	.	(16a-L	.	.
.	.	.	.	.	.	16gJJ	.	.
8FL	.	8B-L	.	8a-L	.	16a-LL	.	.
.	.	.	.	.	.	16b-	.	.
8FJ	.	8B-J	.	8a-J	.	16cc	.	.
.	.	.	.	.	.	16ddXJJ)	.	#viio6/V
=282	=282	=282	=282	=282	=282	=282	=282	=282
4E-	f	4B-	f	4g	f	8ee-'L	f	V
.	.	.	.	.	.	(16ee-L	.	.
.	.	.	.	.	.	16ddXJJ	.	.
4r	.	4r	.	4r	.	16ee-LL	.	.
.	.	.	.	.	.	16ff	.	.
.	.	.	.	.	.	16gg	.	.
.	.	.	.	.	.	16ee-JJ)	.	.
=283	=283	=283	=283	=283	=283	=283	=283	=283
2r	.	2r	.	2r	.	8aa-'L	.	I
.	.	.	.	.	.	(16aa-L	.	.
.	.	.	.	.	.	16ggJJ	.	.
.	.	.	.	.	.	16aa-LL	.	.
.	.	.	.	.	.	16bb-	.	.
.	.	.	.	.	.	16ccc	.	.
.	.	.	.	.	.	16dddXJJ)	.	.
=284	=284	=284	=284	=284	=284	=284	=284	=284
4EE-'	ff	8r	.	8r	.	4eee-	ff	i.V
.	.	8A-	ff	8c-X 8e-	.	.	.	.
4AA-'	.	8A-L	.	8c-L 8e-	.	4r	.	i
.	.	8A-J	.	8c-J 8e-	.	.	.	.
=285	=285	=285	=285	=285	=285	=285	=285	=285
(4.C-X	sf	8A-L	.	8c-XL 8e-	.	2r	.	.
.	.	8A-J	.	8c-J 8e-	.	.	.	.
.	.	8A-L	.	8c-L 8e-	.	.	.	.
16BB-LL	.	8A-J	.	8c-J 8e-	.	.	.	.
16AA-JJ)	.	.	.	.	.	.	.	.
=286	=286	=286	=286	=286	=286	=286	=286	=286
8GG'L	.	8B-L	.	8d-L 8e-	.	[2ee-	ff	V65
8AA-'J	.	8B-J	.	8d-J 8e-	.	.	.	.
8BB-'L	.	8B-L	.	8d-L 8e-	.	.	.	.
8C-X'J	.	8B-J	.	8d-J 8e-	.	.	.	.
=287	=287	=287	=287	=287	=287	=287	=287	=287
4D-	.	8B-L	.	8d-L 8e-	.	(8ee-L]	.	V2
.	.	8B-J	.	8d-J 8e-	.	8ff-XJ	.	.
4r	.	8B-L	.	8d-L 8e-	.	8ee-L	.	.
.	.	8B-J	.	8d-J 8e-	.	8ff-J)	.	.
=288	=288	=288	=288	=288	=288	=288	=288	=288
4EE-	.	8GL	.	8B-L 8e-	.	8ee-	.	V
.	.	8GJ	.	8B-J 8e-	.	8r	.	.
4BB-'	.	8GL	.	8B-L 8e-	.	4r	.	.
.	.	8GJ	.	8B-J 8e-	.	.	.	.
=289	=289	=289	=289	=289	=289	=289	=289	=289
(4.D-	sf	8GL	.	8B-L 8e-	.	2r	.	V2
.	.	8GJ	.	8B-J 8e-	.	.	.	.
.	.	8GL	.	8B-L 8e-	.	.	.	.
16C-XLL	.	8GJ	.	8B-J 8e-	.	.	.	.
16BB-JJ)	.	.	.	.	.	.	.	.
=290	=290	=290	=290	=290	=290	=290	=290	=290
8AA-'L	.	8A-L	.	8c-XL 8e-	.	[2aa-	.	i
8BB-'J	.	8A-J	.	8c-J 8e-	.	.	.	.
8C-X'L	.	8A-L	.	8c-L 8e-	.	.	.	.
8D-'J	.	8A-J	.	8c-J 8e-	.	.	.	.
=291	=291	=291	=291	=291	=291	=291	=291	=291
8E-	.	8A-L	.	8c-XL 8e-	.	(8aa-L]	.	i64
8r	.	8A-J	.	8c-J 8e-	.	8ggJ	.	.
4r	.	8A-L	.	8c-L 8e-	.	8aa-L	.	.
.	.	8A-J	.	8c-J 8e-	.	8ggJ)	.	.
=292	=292	=292	=292	=292	=292	=292	=292	=292
8F-XL	.	8A-L	.	8c-XL 8a-	.	8aa-	.	VI
8G-J	.	8f-XJ	.	8c-J 8a-	.	8r	.	.
8A-L	.	8f-L	.	8c-L 8a-	.	[4ccc-X	.	.
8B--XJ	.	8f-J	.	8c-J 8a-	.	.	.	.
=293	=293	=293	=293	=293	=293	=293	=293	=293
4c-X	.	8f-XL	.	8c-XL 8a-	.	(8ccc-L]	.	VI64
.	.	8f-J	.	8c-J 8a-	.	8bb-J	.	.
4r	.	8f-L	.	8c-L 8a-	.	8ccc-XL	.	.
.	.	8f-J	.	8c-J 8a-	.	8bb-J)	.	.
=294	=294	=294	=294	=294	=294	=294	=294	=294
8DX'L	.	8f'L	.	8c-X 8a-	.	8ccc-X	.	#viio7/V
8E-'J	.	8e-'J	.	8r	.	8r	.	.
8F'L	.	8f'L	.	[4a-	.	[4cc-X	.	.
8GX'J	.	8gX'J	.	.	.	.	.	.
=295	=295	=295	=295	=295	=295	=295	=295	=295
4A-	.	4a-	.	(8a-L]	.	(8cc-L]	.	.
.	.	.	.	8gJ)	.	8b-J)	.	.
4DX	.	4dX	.	8a-'L	.	8cc-X'L	.	.
.	.	.	.	8a-'J	.	8cc-'J	.	.
=296	=296	=296	=296	=296	=296	=296	=296	=296
4E-	.	4e-	.	4g	.	8b-L	.	V
.	.	.	.	.	.	8e-J	.	.
8r	.	8r	.	8r	.	[4ee-	.	.
8E-'	.	8e-'	.	8g'	.	.	.	.
=297	=297	=297	=297	=297	=297	=297	=297	=297
4EE-'	.	4dX'	.	4A-'	.	8ee-L]	.	V[#viio/V
.	.	.	.	.	.	8fJ	.	.
8r	.	8r	.	8r	.	[4ff	.	.
8E-'	.	8d'	.	8a-'	.	.	.	.
=298	=298	=298	=298	=298	=298	=298	=298	=298
4EE-'	.	4d-'	.	4B-'	.	8ffL]	.	V64(2)
.	.	.	.	.	.	8gJ	.	.
8r	.	8r	.	8r	.	[4gg	.	V64
8E-'	.	8d-'	.	8b-'	.	.	.	.
=299	=299	=299	=299	=299	=299	=299	=299	=299
4EE-'	.	4c'	.	4c'	.	8ggL]	.	I6
.	.	.	.	.	.	8a-J	.	.
8r	.	8r	.	8r	.	[4aa-	.	.
8E-'	.	8c'	.	8cc'	.	.	.	.
=300	=300	=300	=300	=300	=300	=300	=300	=300
8EE-'	.	8G'	.	8d-'	.	8aa-L]	.	V6]
8r	.	8r	.	8r	.	(8b-J	.	.
!	!	!	!	!	!	!LO:TX:b:Bi:t=decresc.	!	!
4r	.	4r	.	4r	.	8bb-'L)	.	.
.	.	.	.	.	.	8aa-'J	.	.
=301	=301	=301	=301	=301	=301	=301	=301	=301
!	!	!	!LO:DY:a	!	!	!	!	!
2r	.	2r	p	2r	.	8gg'L	.	V7
.	.	.	.	.	.	8ff'J	.	.
.	.	.	.	.	.	8ee-'L	.	.
.	.	.	.	.	.	8dd-'J	.	.
=302	=302	=302	=302	=302	=302	=302	=302	=302
2r	.	2r	.	8A-'L	.	8cc	p	I
.	.	.	.	8c'J	.	4cc	.	.
.	.	.	.	8e-'L	.	.	.	.
.	.	.	.	8g'J	.	[8cc	.	.
=303	=303	=303	=303	=303	=303	=303	=303	=303
2r	.	2r	.	8a-'L	.	8ccL]	.	.
.	.	.	.	8g'J	.	8cc'J	.	.
.	.	.	.	8a-'L	.	(16dd-LL	.	.
.	.	.	.	.	.	16cc	.	.
.	.	.	.	8f'J	.	16b-	.	.
.	.	.	.	.	.	16ccJJ)	.	.
=304	=304	=304	=304	=304	=304	=304	=304	=304
2r	.	2r	.	8d-'	.	(8dd-L	.	ii6
.	.	.	.	8r	.	8b-J	.	.
.	.	.	.	8dX'	.	8ccL	.	#vii%7/V
.	.	.	.	8r	.	8a-J)	.	.
=305	=305	=305	=305	=305	=305	=305	=305	=305
2r	.	2r	.	8e-	.	(8a-L	.	V\\
.	.	.	.	8r	.	8gJ	.	.
.	.	.	.	4r	.	8fL	.	.
.	.	.	.	.	.	8e-J)	.	.
=306	=306	=306	=306	=306	=306	=306	=306	=306
2r	.	8A-'L	p	8c'L	.	8ee-	.	I
.	.	8c'J	.	8e-'J	.	4ee-	.	.
.	.	8e-'L	.	8a-'L	.	.	.	.
.	.	8g'J	.	8b-'J	.	[8ee-	.	V6
=307	=307	=307	=307	=307	=307	=307	=307	=307
2r	.	8a-'L	.	8cc'L	.	8ee-L]	.	I
.	.	8g'J	.	8b-'J	.	8ee-'J	.	V6
.	.	8a-'L	.	8cc'L	.	(16ffLL	.	I
.	.	.	.	.	.	16ee-	.	.
.	.	8f'J	.	8a-'J	.	16ddX	.	vi7
.	.	.	.	.	.	16ee-JJ)	.	.
=308	=308	=308	=308	=308	=308	=308	=308	=308
2r	.	8d-'L	.	8f'L	.	8ff'L	.	IV
.	.	8B-'J	.	8f'J	.	8dd-'J	.	ii
.	.	8e-'L	.	8d-'L	.	8b-'L	.	V7
.	.	8E-'J	.	8B-'J	.	8g'J	.	.
=309	=309	=309	=309	=309	=309	=309	=309	=309
2r	.	4A-	.	16cLL	.	8a-	.	I\\
.	.	.	.	(16cc	.	.	.	.
.	.	.	.	16b-	.	8r	.	.
.	.	.	.	16a-JJ	.	.	.	.
.	.	4r	.	16gLL	.	4r	.	.
.	.	.	.	16f	.	.	.	.
.	.	.	.	16e-	.	.	.	.
.	.	.	.	16d-JJ)	.	.	.	.
=310	=310	=310	=310	=310	=310	=310	=310	=310
8AA-'L	p	2r	.	8c'	.	2r	.	.
8C'J	.	.	.	4c	.	.	.	.
8E-'L	.	.	.	.	.	.	.	.
8G'J	.	.	.	[8c'	.	.	.	.
=311	=311	=311	=311	=311	=311	=311	=311	=311
8A-L	.	2r	.	8cL]	.	2r	.	.
8GJ	.	.	.	8cJ	.	.	.	.
8A-L	.	.	.	(16d-LL	.	.	.	.
.	.	.	.	16c	.	.	.	.
8A-J	.	.	.	16B-	.	.	.	.
.	.	.	.	16cJJ)	.	.	.	.
=312	=312	=312	=312	=312	=312	=312	=312	=312
4B-	.	8B-'L	.	4d-	.	8ddd-'L	.	viio6
.	.	8d-'J	.	.	.	8bb-'J	.	.
4r	.	8g'L	.	4r	.	8gg'L	.	.
.	.	8a-'J	.	.	.	8dd-'J	.	.
=313	=313	=313	=313	=313	=313	=313	=313	=313
2r	.	8b-L	.	2r	.	8dd-L	.	V43
.	.	8B-J	.	.	.	8dd-J	.	.
.	.	8B-L	.	.	.	16ee-LL	.	.
.	.	.	.	.	.	16dd-	.	.
.	.	8B-J	.	.	.	16cc	.	.
.	.	.	.	.	.	16dd-JJ	.	.
=314	=314	=314	=314	=314	=314	=314	=314	=314
8CL	.	4c	.	8e-	.	8ee-	.	I6
8E-J	.	.	.	4e-	.	8r	.	.
8A-L	.	4r	.	.	.	4r	.	.
8B-J	.	.	.	[8e-	.	.	.	.
=315	=315	=315	=315	=315	=315	=315	=315	=315
8cL	.	2r	.	8e-L]	.	2r	.	.
8BXJ	.	.	.	8e-J	.	.	.	.
8cL	.	.	.	(16fLL	.	.	.	.
.	.	.	.	16e-	.	.	.	.
8cJ	.	.	.	16d-	.	.	.	.
.	.	.	.	16e-JJ)	.	.	.	.
=316	=316	=316	=316	=316	=316	=316	=316	=316
4d-	.	8D-'L	.	4f	.	8ff'L	.	IV
.	.	8F'J	.	.	.	8dd-'J	.	.
4r	.	8A-'L	.	4r	.	8a-'L	.	.
.	.	8c'J	.	.	.	8f'J	.	.
=317	=317	=317	=317	=317	=317	=317	=317	=317
2r	.	8d-L	.	2r	.	8fL	.	.
.	.	8d-J	.	.	.	8fJ	.	.
.	.	8d-L	.	.	.	(16gLL	.	.
.	.	.	.	.	.	16f	.	.
.	.	8d-J	.	.	.	16eX	.	.
.	.	.	.	.	.	16fJJ)	.	.
=318	=318	=318	=318	=318	=318	=318	=318	=318
4E-	sf	4d-	.	4r	.	8gL	sf	V[viio6
.	.	.	.	.	.	8gJ	.	.
4r	.	4B-	sf	4d-	sf	(16a-LL	.	.
.	.	.	.	.	.	16g	.	.
.	.	.	.	.	.	16f	.	.
.	.	.	.	.	.	16gJJ)	.	.
=319	=319	=319	=319	=319	=319	=319	=319	=319
4E-	sf	4r	.	4r	.	8a-L	sf	I
.	.	.	.	.	.	8a-J	.	.
!	!	!	!LO:DY:a	!	!	!	!	!
4r	.	4A-	sf sf	4c	.	(16b-LL	.	.
.	.	.	.	.	.	16a-	.	.
.	.	.	.	.	.	16g	.	.
.	.	.	.	.	.	16a-JJ)	.	.
=320	=320	=320	=320	=320	=320	=320	=320	=320
4E-	sf	4r	.	4r	.	8b-L	sf	V6
.	.	.	.	.	.	8b-J	.	.
4r	.	4G	sf	4B-	.	(16ccLL	sf	.
.	.	.	.	.	.	16b-	.	.
.	.	.	.	.	.	16aX	.	.
.	.	.	.	.	.	16b-JJ)	.	.
=321	=321	=321	=321	=321	=321	=321	=321	=321
!	!	!	!	!	!LO:DY:a	!	!	!
4E-	sf	4r	.	4r	sf	8ccL	.	I
.	.	.	.	.	.	8ccJ	.	.
4r	.	4F	sf	4a-	sf	(16dd-LL	.	IV6
.	.	.	.	.	.	16cc	.	.
.	.	.	.	.	.	16b-	.	.
.	.	.	.	.	.	16ccJJ)	.	.
=322	=322	=322	=322	=322	=322	=322	=322	=322
2EE-	p	2E-	p	4g	p	(4dd-	p	V7]
.	.	.	.	4r	.	4b-	.	.
=323	=323	=323	=323	=323	=323	=323	=323	=323
(4FF-X	.	(4F-X	.	(4d-	.	2g)	.	viio43
4DD-	.	4D-	.	4B-	.	.	.	.
=324	=324	=324	=324	=324	=324	=324	=324	=324
2EE-)	.	2E-)	.	2g)	.	(4gg	.	V7
.	.	.	.	.	.	4dd-	.	.
=325	=325	=325	=325	=325	=325	=325	=325	=325
(4FF-X	.	(4F-X	.	(4d-	.	2b-)	.	viio43
4DD-	.	4D-	.	4B-	.	.	.	.
=326	=326	=326	=326	=326	=326	=326	=326	=326
2EE-)	.	2E-)	.	2g)	.	(4bb-	.	V
.	.	.	.	.	.	4gg	.	.
=327	=327	=327	=327	=327	=327	=327	=327	=327
(4EE--X	.	(4F-X	.	(4d-	.	2dd-)	.	viio43
4DD-	.	4D-	.	4B-	.	.	.	.
=328	=328	=328	=328	=328	=328	=328	=328	=328
2EE-)	.	2E-)	.	2g)	.	(4ddd-	.	V7
.	.	.	.	.	.	4bb-	.	.
=329	=329	=329	=329	=329	=329	=329	=329	=329
(4FF-X	.	(4F-X	.	(4d-	.	2gg)	.	viio43
4DD-)	.	4D-)	.	4B-)	.	.	.	.
=330	=330	=330	=330	=330	=330	=330	=330	=330
!LO:TX:b:Bi:t=cresc.	!	!LO:TX:b:Bi:t=cresc.	!	!LO:TX:b:Bi:t=cresc.	!	!LO:TX:b:Bi:t=cresc.	!	!
(8DDXL	.	(8DXL	.	[2c-X [2a-	.	(8ccc-XL	.	#viio7/V
8FFJ	.	8FJ	.	.	.	8aa-J	.	.
8AA-L	.	8A-L	.	.	.	8ffL	.	.
8C-XJ	.	8c-XJ	.	.	.	8ddXJ	.	.
=331	=331	=331	=331	=331	=331	=331	=331	=331
8DXL	.	8dXL	.	8c-L] 8a-]	.	8cc-XL	.	.
8FJ	.	8fJ	.	8c-XJ 8a-	.	8a-J	.	.
8A-L	.	8a-L	.	8c-L 8a-	.	8fL	.	.
8FJ)	.	8fJ)	.	8c-J 8a-	.	8dXJ)	.	.
=332	=332	=332	=332	=332	=332	=332	=332	=332
!	!	!	!LO:DY:a	!	!LO:DY:a	!	!	!
8E-L	f	8e-L	f f	8cL 8a-	f	(4.e-	.	V(64)
8E-J	.	8A-J	.	8cJ	.	.	.	.
8E-L	.	8A-L	.	8cL	.	.	.	.
8E-J	.	8A-J	.	8cJ	.	16cLL	.	.
.	.	.	.	.	.	16A-JJ)	.	.
=333	=333	=333	=333	=333	=333	=333	=333	=333
8E-L	.	8GL	.	8d-L	.	2B-T	.	V7
8E-J	.	8GJ	.	8d-J	.	.	.	.
8E-L	.	8GL	.	8d-L	.	.	.	.
8E-J	.	8GJ	.	8d-J	.	.	.	.
=334	=334	=334	=334	=334	=334	=334	=334	=334
2e-	p	2r	.	2r	.	(4dd-	p	.
.	.	.	.	.	.	4b-	.	.
=335	=335	=335	=335	=335	=335	=335	=335	=335
(4f-X	.	(4dd-	p	2r	.	2g)	.	viio43
4d-	.	4b-)	.	.	.	.	.	.
=336	=336	=336	=336	=336	=336	=336	=336	=336
2e-)	.	2r	.	(4dd-	p	(4gg	.	V7
.	.	.	.	4b-)	.	4dd-	.	.
=337	=337	=337	=337	=337	=337	=337	=337	=337
(4f-X	.	(4dd-	.	2r	.	2b-)	.	viio43
4d-	.	4b-)	.	.	.	.	.	.
=338	=338	=338	=338	=338	=338	=338	=338	=338
2e-)	.	2r	.	(4dd-	.	(4bb-	.	V7
.	.	.	.	4b-)	.	4gg	.	.
=339	=339	=339	=339	=339	=339	=339	=339	=339
(4f-X	.	(4dd-	.	2r	.	2dd-)	.	viio43
4d-	.	4b-)	.	.	.	.	.	.
=340	=340	=340	=340	=340	=340	=340	=340	=340
4e-)	pp	2r	.	2r	.	(8ddd-L	pp	V7
.	.	.	.	.	.	8bb-J	.	.
(8f-XL	.	.	.	.	.	4gg	.	viio2
8d-J	.	.	.	.	.	.	.	.
=341	=341	=341	=341	=341	=341	=341	=341	=341
4B-)	.	4d-	pp	2r	.	8fff-XL	.	.bIII.viio
.	.	.	.	.	.	8ddd-J	.	.
(8d-L	.	(8f-XL	.	.	.	4bb-)	.	.
8B-J	.	8d-J	.	.	.	.	.	.
=342	=342	=342	=342	=342	=342	=342	=342	=342
!	!	!	!LO:DY:a	!	!	!	!	!
[2G)	.	(2B-)	pp	(8d-L	.	(2fff-X	.	V[V65
.	.	.	.	8g-J	.	.	.	.
.	.	.	.	8d-L	.	.	.	.
.	.	.	.	8g-J)	.	.	.	.
=343	=343	=343	=343	=343	=343	=343	=343	=343
2G_	.	2c-X	.	(8e-L	.	8eee-L	.	I
.	.	.	.	8g-J	.	8dddXJ	.	.
.	.	.	.	8e-L	.	8eee-L	.	.
.	.	.	.	8g-J)	.	8ccc-XJ)	.	.
=344	=344	=344	=344	=344	=344	=344	=344	=344
2G_	.	2d-	.	(8f-XL	.	4bb-'	.	V43
.	.	.	.	8g-J	.	.	.	.
.	.	.	.	8f-L	.	4bb-'	.	.
.	.	.	.	8g-J)	.	.	.	.
=345	=345	=345	=345	=345	=345	=345	=345	=345
2G_	.	2c-X)	.	(8e-L	.	(4.ccc-X	.	I
.	.	.	.	8g-J	.	.	.	.
.	.	.	.	8e-L	.	.	.	.
.	.	.	.	8g-J)	.	16ddd-LL	.	.
.	.	.	.	.	.	16eee-JJ)	.	.
=346	=346	=346	=346	=346	=346	=346	=346	=346
2G_	.	(2B-	.	(8d-L	.	(2fff-X	.	V65
.	.	.	.	8g-J	.	.	.	.
.	.	.	.	8d-L	.	.	.	.
.	.	.	.	8g-J)	.	.	.	.
=347	=347	=347	=347	=347	=347	=347	=347	=347
2G_	.	2c-X	.	(8e-L	.	8eee-L	.	I
.	.	.	.	8g-J	.	8dddXJ	.	.
.	.	.	.	8e-L	.	8eee-L	.	.
.	.	.	.	8g-J)	.	8ccc-XJ)	.	.
=348	=348	=348	=348	=348	=348	=348	=348	=348
(2G]	.	2d-	.	(8f-XL	.	4bb-'	.	V43]
.	.	.	.	8g-J	.	.	.	.
.	.	.	.	8f-L	.	4bb-'	.	.
.	.	.	.	8g-J)	.	.	.	.
=349	=349	=349	=349	=349	=349	=349	=349	=349
[2C-X)	.	2c-X)	.	(8e-L	.	(4.ccc-X	.	I
.	.	.	.	8g-J	.	.	.	.
.	.	.	.	8e-L	.	.	.	.
.	.	.	.	8g-J)	.	8bb-)	.	.
=350	=350	=350	=350	=350	=350	=350	=350	=350
!LO:TX:b:Bi:t=cresc.	!	!LO:TX:b:Bi:t=cresc.	!	!LO:TX:b:Bi:t=cresc.	!	!LO:TX:a:Bi:t=cresc.	!	!
8C-L]	.	8c-XL	.	8e-L	.	[2aaX	.	I.Ger6
8c-XJ	.	8e-J	.	8g-J	.	.	.	.
8c-L	.	8e-L	.	8g-L	.	.	.	.
8c-J	.	8e-J	.	8g-J	.	.	.	.
=351	=351	=351	=351	=351	=351	=351	=351	=351
8c-XL	.	8e-L	.	8g-L	.	2aa]	.	.
8c-J	.	8e-J	.	8g-J	.	.	.	.
8c-L	.	8e-L	.	8g-L	.	.	.	.
8c-J	.	8e-J	.	8g-J	.	.	.	.
=352	=352	=352	=352	=352	=352	=352	=352	=352
8B-L	.	8e-L	.	8gXL	.	(4.bb-	.	V(64)
8B-J	.	8e-J	.	8gJ	.	.	.	.
8B-L	.	8e-L	.	8gL	.	.	.	.
8B-J	.	8e-J	.	8gJ	.	16ggXLL	.	.
.	.	.	.	.	.	16ee-JJ)	.	.
=353	=353	=353	=353	=353	=353	=353	=353	=353
8B-L	.	8dXL	.	8a-L	.	2ffT	.	V7
8B-J	.	8dJ	.	8a-J	.	.	.	.
8B-L	.	8dL	.	8a-L	.	.	.	.
8B-J	.	8dJ	.	8a-J	.	.	.	.
.	.	.	.	.	.	(16qqee-/LL	.	.
.	.	.	.	.	.	16qqff/JJ)	.	.
=354	=354	=354	=354	=354	=354	=354	=354	=354
8E-L	f	8d-L	f	8b-L	f	[2ggt	f	I
8E-J	.	8B-J	.	8d-J	.	.	.	.
8E-L	.	8B-L	.	8d-L	.	.	.	.
8E-J	.	8B-J	.	8d-J	.	.	.	.
=355	=355	=355	=355	=355	=355	=355	=355	=355
8EXL	.	8B-L	.	8d-L	.	2gg]	.	#viio7/vi
8EJ	.	8B-J	.	8d-J	.	.	.	.
8EL	.	8B-L	.	8d-L	.	.	.	.
8EJ	.	8B-J	.	8d-J	.	.	.	.
.	.	.	.	.	.	(16qqff/LL	.	.
.	.	.	.	.	.	16qqgg/JJ)	.	.
=356	=356	=356	=356	=356	=356	=356	=356	=356
!	!	!	!LO:DY:a	!	!	!	!	!
8FL	ff	8A-L	ff ff	8cL	.	4aa-T	ff	vi
8FJ	.	8A-J	.	8cJ	.	.	.	.
.	.	.	.	.	.	(16qqgg/LL	.	.
.	.	.	.	.	.	16qqaa-/JJ)	.	.
8DXL	.	8fL	.	8fL	.	4bb-T	.	V6/V
8DJ	.	8fJ	.	8fJ	.	.	.	.
.	.	.	.	.	.	(16qqaa-/LL	.	.
.	.	.	.	.	.	16qqbb-/JJ)	.	.
=357	=357	=357	=357	=357	=357	=357	=357	=357
8E-L	.	8e-L	.	8a-L	.	4ccc	.	V(64)
8E-J	.	8e-J	.	8a-J	.	.	.	.
8EE-L	.	8d-L	.	8gL	.	4bb-	.	V7
8EE-J	.	8d-J	.	8gJ	.	.	.	.
=358	=358	=358	=358	=358	=358	=358	=358	=358
(16AA-LL	.	4c	.	4a-'	.	4aa-'	.	I\\
16BB-	.	.	.	.	.	.	.	.
16C	.	.	.	.	.	.	.	.
16D-JJ	.	.	.	.	.	.	.	.
16E-LL	.	4r	.	4a-'	.	4r	.	I[I
16D-	.	.	.	.	.	.	.	.
16C	.	.	.	.	.	.	.	.
16BB-JJ	.	.	.	.	.	.	.	.
=359	=359	=359	=359	=359	=359	=359	=359	=359
16AA-LL	.	2r	.	(4.cc	.	2r	.	.
16BB-	.	.	.	.	.	.	.	.
16C	.	.	.	.	.	.	.	.
16D-JJ	.	.	.	.	.	.	.	.
16E-LL	.	.	.	.	.	.	.	.
16F	.	.	.	.	.	.	.	.
16G	.	.	.	16b-LL	.	.	.	.
16A-JJ)	.	.	.	16a-JJ)	.	.	.	.
=360	=360	=360	=360	=360	=360	=360	=360	=360
!	!	!	!LO:DY:a	!	!	!	!	!
8AA-L	.	8d-L	sf	(16gLL	.	4ee-'	.	V2
.	.	.	.	16a-	.	.	.	.
8A-J	.	8d-J	.	16b-	.	.	.	.
.	.	.	.	16ccJJ	.	.	.	.
8A-L	.	8d-L	.	16dd-LL	.	4bb-	.	.
.	.	.	.	16cc	.	.	.	.
8A-J	.	8d-J	.	16b-	.	.	.	.
.	.	.	.	16a-JJ	.	.	.	.
=361	=361	=361	=361	=361	=361	=361	=361	=361
8A-L	.	8d-L	.	16gLL	.	(4.ddd-	sf	.
.	.	.	.	16a-	.	.	.	.
8A-J	.	8d-J	.	16b-	.	.	.	.
.	.	.	.	16a-JJ	.	.	.	.
8A-L	.	8d-L	.	16gLL	.	.	.	.
.	.	.	.	16e-	.	.	.	.
8A-J	.	8d-J	.	16f	.	16cccLL	.	.
.	.	.	.	16gJJ)	.	16bb-JJ)	.	.
=362	=362	=362	=362	=362	=362	=362	=362	=362
(16AA-LL	.	8cL	.	8a-'L	.	4aa-	.	I6
16BB-	.	.	.	.	.	.	.	.
16C	.	8e-J	.	8ee-'J	.	.	.	.
16D-JJ	.	.	.	.	.	.	.	.
16E-LL	.	8a-L	.	8aa-'L	.	4r	.	.
16D-	.	.	.	.	.	.	.	.
16C	.	8a-J	.	8aa-'J	.	.	.	.
16BB-JJ	.	.	.	.	.	.	.	.
=363	=363	=363	=363	=363	=363	=363	=363	=363
16AA-LL	.	(4.cc	sf	(4.ccc	sf	2r	.	.
16BB-	.	.	.	.	.	.	.	.
16C	.	.	.	.	.	.	.	.
16D-JJ	.	.	.	.	.	.	.	.
16E-LL	.	.	.	.	.	.	.	.
16F	.	.	.	.	.	.	.	.
16G	.	16b-LL	.	16bb-LL	.	.	.	.
16A-JJ)	.	16a-JJ)	.	16aa-JJ)	.	.	.	.
=364	=364	=364	=364	=364	=364	=364	=364	=364
8AA-L	.	8g'L	.	8gg'L	.	8ee-'L	.	V43
8AA-J	.	(16B-L	.	(16b-L	.	8ee-'J	.	.
.	.	16cJJ	.	16ccJJ	.	.	.	.
8AA-L	.	16d-LL	.	16dd-LL	.	8bb-'L	.	.
.	.	16c	.	16cc	.	.	.	.
8AA-J	.	16B-	.	16b-	.	8bb-'J	.	.
.	.	16A-JJ	.	16a-JJ	.	.	.	.
=365	=365	=365	=365	=365	=365	=365	=365	=365
8AA-L	.	16GLL	.	16gLL	.	(4.ddd-	sf	V65
.	.	16A-	.	16a-	.	.	.	.
8AA-J	.	16B-	.	16b-	.	.	.	.
.	.	16A-JJ	.	16a-JJ	.	.	.	.
8AA-L	.	16GLL	.	16gLL	.	.	.	.
.	.	16E-	.	16e-	.	.	.	.
8AA-J	.	16F	.	16f	.	16cccLL	.	.
.	.	16GJJ)	.	16gJJ)	.	16bb-JJ)	.	.
=366	=366	=366	=366	=366	=366	=366	=366	=366
8AA-L	.	8A-	.	8a-	.	8aa-'L	.	I
8A-J	.	4d-	.	4g	.	(16bb-L	.	V2
.	.	.	.	.	.	16cccJJ	.	.
8A-L	.	.	.	.	.	8ddd-'L)	.	.
8A-J	.	8d-	.	8g	.	(16cccL	.	.
.	.	.	.	.	.	16bb-JJ	.	.
=367	=367	=367	=367	=367	=367	=367	=367	=367
8AA-L	.	8c	.	8a-	.	8aa-'L)	.	I6
8A-J	.	4d-	.	4g	.	(16bb-L	.	V2
.	.	.	.	.	.	16cccJJ	.	.
8A-L	.	.	.	.	.	8ddd-'L)	.	.
8A-J	.	8d-	.	8g	.	(16cccL	.	.
.	.	.	.	.	.	16bb-JJ	.	.
=368	=368	=368	=368	=368	=368	=368	=368	=368
8AA-'L	ff	8c'L	ff	8a-'L	.	8aa-')	ff	I6]
(16GGL	.	(16B-L	.	(16b-L	.	4eee-	.	V7
16FFJJ	.	16cJJ	.	16ccJJ	.	.	.	.
8EE-'L)	.	8d-'L)	.	8dd-'L)	.	.	.	.
(16FFL	.	(16cL	.	(16ccL	.	[8eee-	.	.
16GGJJ	.	16B-JJ	.	16b-JJ	.	.	.	.
=369	=369	=369	=369	=369	=369	=369	=369	=369
8AA-'L)	.	8A-'L)	.	8a-'L)	.	8eee-]	.	I
(16GGL	.	(16B-L	.	(16b-L	.	4eee-	.	V7
16FFJJ	.	16cJJ	.	16ccJJ	.	.	.	.
8EE-'L)	.	8d-'L)	.	8dd-'L)	.	.	.	.
(16FFL	.	(16cL	.	(16ccL	.	[8eee-	.	.
16GGJJ	.	16B-JJ	.	16b-JJ	.	.	.	.
=370	=370	=370	=370	=370	=370	=370	=370	=370
4AA-')	.	4A-')	.	4a-')	.	4eee-]	.	I
4r	.	4r	.	4cc'	.	4ccc	.	.
=371	=371	=371	=371	=371	=371	=371	=371	=371
4e-'	.	4ee-'	.	2a-	sf	2aa-	sf	I64
4c'	.	4cc'	.	.	.	.	.	.
=372	=372	=372	=372	=372	=372	=372	=372	=372
2A-	sf	2a-	sf	4cc'	.	4ccc'	.	I
.	.	.	.	4a-'	.	4aa-'	.	.
=373	=373	=373	=373	=373	=373	=373	=373	=373
4c'	.	4cc'	.	2e-	sf	2ee-	sf	I6
4A-'	.	4a-'	.	.	.	.	.	.
=374	=374	=374	=374	=374	=374	=374	=374	=374
2E-	sf	2e-	sf	4a-'	.	4aa-'	.	I64
.	.	.	.	4e-'	.	4ee-'	.	.
=375	=375	=375	=375	=375	=375	=375	=375	=375
!	!	!	!LO:DY:a	!	!	!	!	!
4A-'	.	4a-'	sf	2c	.	2cc	sf	I
4E-'	.	4e-'	.	.	.	.	.	.
=376	=376	=376	=376	=376	=376	=376	=376	=376
4C	.	4c	.	4e-	.	8ee-'L	.	.
.	.	.	.	.	.	8cc'J	.	.
!	!	!	!LO:DY:a	!	!	!	!	!
8e-L	.	[4c	sf	[4e-	.	4a-	sf	.
8cJ	.	.	.	.	.	.	.	.
=377	=377	=377	=377	=377	=377	=377	=377	=377
4A-	sf	4c]	.	4e-]	.	8ccL	.	.
.	.	.	.	.	.	8a-J	.	.
!	!	!	!LO:DY:a	!	!LO:DY:a	!	!	!
8cL	.	[4c	sf	[4e-	sf	4e-	.	.
8A-J	.	.	.	.	.	.	.	.
=378	=378	=378	=378	=378	=378	=378	=378	=378
4E-	sf	4c]	.	4e-]	.	8a-L	.	.
.	.	.	.	.	.	8e-J	.	.
!	!	!	!LO:DY:a	!	!LO:DY:a	!	!	!
8A-L	.	[4c	sf	[4e-	sf	4c	.	.
8E-J	.	.	.	.	.	.	.	.
=379	=379	=379	=379	=379	=379	=379	=379	=379
4C	sf	4c]	.	4e-]	.	8e-L	.	.
.	.	.	.	.	.	8cJ	.	.
!	!	!	!	!	!LO:DY:a	!	!	!
8E-L	.	[4c	.	[4e-	sf sf	4A-	.	.
8CJ	.	.	.	.	.	.	.	.
=380	=380	=380	=380	=380	=380	=380	=380	=380
4AA-	sf	4c]	.	4e-]	.	8e-L	.	.
.	.	.	.	.	.	8cJ	.	.
!	!	!	!LO:DY:a	!	!LO:DY:a	!	!	!
8E-L	.	[4c	sf	[4e-	sf	4A-	.	.
8CJ	.	.	.	.	.	.	.	.
=381	=381	=381	=381	=381	=381	=381	=381	=381
4AA-	sf	4c]	.	4e-]	.	8e-L	.	.
.	.	.	.	.	.	8cJ	.	.
!	!	!	!LO:DY:a	!	!LO:DY:a	!	!	!
8E-L	.	[4c	sf	[4e-	sf	4A-	.	.
8CJ	.	.	.	.	.	.	.	.
=382	=382	=382	=382	=382	=382	=382	=382	=382
2AA-	.	4c]	.	4e-]	.	8e-L	.	.
.	.	.	.	.	.	8cJ	.	.
!	!	!	!LO:DY:a	!	!LO:DY:a	!	!	!
.	.	[4c	sf sf	[4e-	sf	[4A-	.	.
=383	=383	=383	=383	=383	=383	=383	=383	=383
(8E-L	.	2c_	.	2e-_	.	2A-]	.	.
!LO:TX:b:Bi:t=decresc.	!	!	!	!	!	!	!	!
8CJ)	.	.	.	.	.	.	.	.
[4AA-	.	.	.	.	.	.	.	.
=384	=384	=384	=384	=384	=384	=384	=384	=384
!	!	!LO:TX:b:Bi:t=decresc.	!	!LO:TX:b:Bi:t=decresc.	!	!LO:TX:b:Bi:t=decresc.	!	!
2AA-]	p	4c]	p	4e-]	p	(8e-L	p	.
.	.	.	.	.	.	8cJ	.	.
.	.	[4c	.	[4e-	.	[4A-)	.	.
=385	=385	=385	=385	=385	=385	=385	=385	=385
(8E-L	.	2c_	.	2e-_	.	2A-]	.	.
8CJ	.	.	.	.	.	.	.	.
[4AA-)	.	.	.	.	.	.	.	.
=386	=386	=386	=386	=386	=386	=386	=386	=386
!	!	!	!LO:DY:a	!	!LO:DY:a	!	!	!
2AA-]	pp	4c]	pp pp	4e-]	pp	(8g-L	.	V7/IV
.	.	.	.	.	.	8e-J	.	.
.	.	[4c	.	[4e-	.	[4A-)	.	.
=387	=387	=387	=387	=387	=387	=387	=387	=387
(8G-L	.	2c;]	.	2e-;]	.	2A-;]	.	.
8E-J	.	.	.	.	.	.	.	.
4AA-;)	.	.	.	.	.	.	.	.
=388	=388	=388	=388	=388	=388	=388	=388	=388
4D-'	pp	4d-'	pp	4f'	pp	4a-'	pp	IV
4d-'	.	4f'	.	4a-'	.	4dd-'	.	.
=389	=389	=389	=389	=389	=389	=389	=389	=389
4.d-	.	4.f	.	4.a-	.	(4.ff	.	.
8d-	.	8f	.	8a-	.	16ee-LL	.	.
.	.	.	.	.	.	16dd-JJ)	.	.
=390	=390	=390	=390	=390	=390	=390	=390	=390
8e-'L	.	8g-'L	.	8a-'L	.	8cc'L	.	V7/IV
8d-'J	.	8f'J	.	8a-'J	.	8dd-'J	.	IV
8c'L	.	8e-'L	.	8a-'L	.	8ee-'L	.	V/IV
8B-'J	.	8d-'J	.	8a-'J	.	8ff'J	.	vi7
=391	=391	=391	=391	=391	=391	=391	=391	=391
8A-	.	8c	.	8a-	.	8gg-	.	V/IV
8r	.	8r	.	8r	.	4r	.	.
4r	.	4r	.	4r	.	.	.	.
.	.	.	.	.	.	8r	.	.
=392	=392	=392	=392	=392	=392	=392	=392	=392
4D-'	.	4f'	.	4a-'	.	4a-'	.	IV
4d-'	.	4f'	.	4a-'	.	4dd-'	.	.
=393	=393	=393	=393	=393	=393	=393	=393	=393
2d-	.	2f	.	2a-	.	2ff	.	.
=394	=394	=394	=394	=394	=394	=394	=394	=394
4GGX'	.	4B-'	.	4e-'	.	4e-'	.	V6
4GX'	.	4B-'	.	4e-'	.	4b-'	.	.
=395	=395	=395	=395	=395	=395	=395	=395	=395
4.G	.	(4.B-	.	2e-	.	2dd-	.	V65
8E-	.	8G)	.	.	.	.	.	.
=396	=396	=396	=396	=396	=396	=396	=396	=396
4A-'	.	4c'	.	4e-'	.	4cc'	.	I
*clefG2	*	*	*	*	*	*	*	*
4aa-'	.	4cc'	.	4ee-'	.	4aa-'	.	.
=397	=397	=397	=397	=397	=397	=397	=397	=397
4.aa-	.	4.cc	.	4.ee-	.	(4.ccc	.	.
8aa-	.	8cc	.	8ee-	.	16bb-LL	.	.
.	.	.	.	.	.	16aa-JJ)	.	.
=398	=398	=398	=398	=398	=398	=398	=398	=398
8bb-'L	.	8dd-'L	.	8ee-'L	.	8gg'L	.	V2
8aa-'J	.	8cc'J	.	8ee-'J	.	8aa-'J	.	.
8gg'L	.	8b-'L	.	8ee-'L	.	8bb-'L	.	.
8ff'J	.	8a-'J	.	8ee-'J	.	8ccc'J	.	.
=399	=399	=399	=399	=399	=399	=399	=399	=399
8ee-	.	8g	.	8ee-	.	8ddd-	.	V65
8r	.	8r	.	8r	.	8r	.	.
4r	.	4r	.	4r	.	4r	.	.
=400	=400	=400	=400	=400	=400	=400	=400	=400
4E-'	.	4g'	.	4b-'	.	4ee-'	.	V
4e-'	.	4g'	.	4ee-'	.	4bb-'	.	.
=401	=401	=401	=401	=401	=401	=401	=401	=401
4.e-	.	4.g	.	4.ee-	.	(4.ddd-	.	V7
8d-	.	8g	.	8ee-	.	16cccLL	.	.
.	.	.	.	.	.	16bb-JJ)	.	.
=402	=402	=402	=402	=402	=402	=402	=402	=402
!LO:TX:b:Bi:t=cresc.	!	!LO:TX:b:Bi:t=cresc.	!	!LO:TX:b:Bi:t=cresc.	!	!LO:TX:b:Bi:t=cresc.	!	!
8c'L	.	8a-'L	.	8ee-'L	.	8eee-'L	.	I6
8f'J	.	8a-'J	.	8cc'J	.	8ccc'J	.	vi
8d-'L	.	8b-'L	.	8dd-'L	.	8ddd-'L	.	ii6
8e-'J	.	8g'J	.	8b-'J	.	8bb-'J	.	V
=403	=403	=403	=403	=403	=403	=403	=403	=403
8c'L	.	8a-'L	.	8ee-'L	.	8eee-'L	.	I6
8f'J	.	8a-'J	.	8cc'J	.	8ccc'J	.	vi
8d-'L	.	8b-'L	.	8dd-'L	.	8ddd-'L	.	ii6
8e-'J	.	8g'J	.	8b-'J	.	8bb-'J	.	V
=404	=404	=404	=404	=404	=404	=404	=404	=404
8c'L	.	8a-'L	.	8ee-'L	.	8eee-'L	.	I6
8F'J	.	8a-'J	.	8aa-'J	.	8ccc'J	.	vi
8D-'L	.	8f'L	.	8ff'L	.	8ddd-'L	.	IV
8E-'J	.	8g'J	.	8gg'J	.	8bb-'J	.	V
=405	=405	=405	=405	=405	=405	=405	=405	=405
8C'L	.	8a-'L	.	8aa-'L	.	8eee-'L	.	I6
8F'J	.	8a-'J	.	8aa-'J	.	8ccc'J	.	vi
8D-'L	.	8f'L	.	8ff'L	.	8ddd-'L	.	IV
8E-'J	.	8g'J	.	8gg'J	.	8bb-'J	.	V
=406	=406	=406	=406	=406	=406	=406	=406	=406
16CLL	.	16a-LL	.	16aa-LL	.	16eee-LL	.	I6
16C	.	16a-	.	16aa-	.	16eee-	.	.
16F	.	16a-	.	16aa-	.	16ccc	.	vi
16FJJ	.	16a-JJ	.	16aa-JJ	.	16cccJJ	.	.
16D-LL	.	16fLL	.	16ffLL	.	16ddd-LL	.	IV
16D-	.	16f	.	16ff	.	16ddd-	.	.
16E-	.	16g	.	16gg	.	16bb-	.	V
16E-JJ	.	16gJJ	.	16ggJJ	.	16bb-JJ	.	.
=407	=407	=407	=407	=407	=407	=407	=407	=407
16CLL	.	16a-LL	.	16aa-LL	.	16eee-LL	.	I6
16C	.	16a-	.	16aa-	.	16eee-	.	.
16F	.	16a-	.	16aa-	.	16ccc	.	vi
16FJJ	.	16a-JJ	.	16aa-JJ	.	16cccJJ	.	.
16D-LL	.	16fLL	.	16ffLL	.	16ddd-LL	.	IV
16D-	.	16f	.	16ff	.	16ddd-	.	.
16E-	.	16g	.	16gg	.	16bb-	.	V
16E-JJ	.	16gJJ	.	16ggJJ	.	16bb-JJ	.	.
=408	=408	=408	=408	=408	=408	=408	=408	=408
!	!	!	!LO:DY:a	!	!	!	!	!
8AA-L	ff	16a-LL	ff ff	8aa-L	.	16eee-LL	ff	I\\
.	.	16a-	.	.	.	16eee-	.	.
8cJ	.	16cc	.	16ccL	.	16ccc	.	.
.	.	16ccJJ	.	16ccJJ	.	16cccJJ	.	.
8A-L	.	16a-LL	.	16a-LL	.	16aa-LL	.	.
.	.	16a-	.	16a-	.	16aa-	.	.
8E-J	.	16e-	.	16e-	.	16ee-	.	.
.	.	16e-JJ	.	16e-JJ	.	16ee-JJ	.	.
=409	=409	=409	=409	=409	=409	=409	=409	=409
8CL	.	16cLL	.	16cLL	.	16ccLL	.	.
.	.	16c	.	16c	.	16cc	.	.
8AA-J	.	16A-	.	16A-	.	16a-	.	.
.	.	16A-JJ	.	16A-JJ	.	16a-JJ	.	.
8E-L	.	16e-LL	.	16e-LL	.	8e-L	.	V7
.	.	16e-	.	16e-	.	.	.	.
8EE-J	.	16E-	.	16dd-	.	8b-J 8gg	.	.
.	.	16E-JJ	.	16dd-JJ	.	.	.	.
=410	=410	=410	=410	=410	=410	=410	=410	=410
4AA-	.	4A-	.	4e- 4cc	.	4cc 4aa-	.	I
4r	.	4r	.	4r	.	4r	.	.
=411	=411	=411	=411	=411	=411	=411	=411	=411
!	!	!	!LO:DY:a	!	!LO:DY:a	!	!	!
4A-	ff	4a-	ff ff	4cc 4aa-	ff	4a- 4ee- 4ccc	.	I
4r	.	4r	.	4r	.	4r	.	.
=412	=412	=412	=412	=412	=412	=412	=412	=412
4AA-	.	4A-	.	4A-	.	4A-	.	I\\
4r	.	4r	.	4r	.	4r	.	.
==	==	==	==	==	==	==	==	==
*-	*-	*-	*-	*-	*-	*-	*-	*-
!!!system-decoration: [(s1,s2,s3,s4)]
